!!!!SEGMENT: pl-cz--ii-184--001-001_neumann-wawrzyniec--vesperae-de-apostolis-in-c-dixit-dominus.krn
!!!cenid: 17xx:999
!!!COM: Neumann, Wawrzyniec
!!!COM-rismid: pe30107352
!!!CDT: ~1700-~1799
!!!CNT:
!!!OPR: Vesperae de Apostolis in C
!!!OTL: Dixit Dominus
!!!OMV: 001
!!!PDT:
!!!AGN: Sacred; Vespers
!!!SMS-siglum: PL-CZ
!!!SMS-shelfmark: II-184
!!!SMS-shelfwork: 001-001 M
!!!SMS-variant:
!!!SMS-altvar:
!!!NIFC-rismid: 300000912
!!!URL-scan: http://repozytorium.nifc.pl/skany/pl-cz-nut--ii-184
!!!ONB-nifc: UWAGA: części Vesperae: Dixit Dominus, Laudate pueri, Credidi, In convertendo, Domine probasti me, Magnificat
!!!key: C
**kern	**fba	**dynam	**kern	**dynam	**kern	**dynam	**kern	**text	**kern	**text	**kern	**text	**kern	**text	**kern	**kern	**kern
*part10	*	*part10	*part9	*part9	*part8	*part8	*part7	*part7	*part6	*part6	*part5	*part5	*part4	*part4	*part3	*part2	*part1
*group5	*	*	*group4	*	*group4	*	*group3	*group3	*group3	*group3	*group3	*group3	*group3	*group3	*group2	*group1	*group1
*staff10	*	*	*staff9	*	*staff8	*	*staff7	*staff7	*staff6	*staff6	*staff5	*staff5	*staff4	*staff4	*staff3	*staff2	*staff1
*I"Organo	*	*	*I"Violino Secondo.	*	*I"Violino. Primo.	*	*I"Ba·sſo.	*	*I"Tenore.	*	*I"Alto	*	*I"Canto	*	*I"Tympano	*I"Clarino Secondo ad libitum.	*I"Clarino Primo ad libitum.
*I'org	*	*	*I'vl 2	*	*I'vl 1	*	*I'B	*	*I'T	*	*I'A	*	*I'S	*	*I'timp	*I'clno 2 in C	*I'clno 1 in C
*Iorgan	*	*	*Ivioln	*	*Ivioln	*	*Ibass	*	*Itenor	*	*Ialto	*	*I soprn	*	*Itimpa	*Iclrno	*Iclrno
*ICklav	*	*	*ICstr	*	*ICstr	*	*ICvox	*	*ICvox	*	*ICvox	*	*ICvox	*	*ICidio	*ICbras	*ICbras
*clefF4	*	*	*clefG2	*	*clefG2	*	*clefF4	*	*clefC4	*	*clefC3	*	*clefC1	*	*clefF4	*clefG2	*clefG2
*k[]	*	*	*k[]	*	*k[]	*	*k[]	*	*k[]	*	*k[]	*	*k[]	*	*k[]	*k[]	*k[]
*C:	*	*	*C:	*	*C:	*	*C:	*	*C:	*	*C:	*	*C:	*	*C:	*C:	*C:
*M4/4	*	*	*M4/4	*	*M4/4	*	*M4/4	*	*M4/4	*	*M4/4	*	*M4/4	*	*M4/4	*M4/4	*M4/4
*met(c)	*	*	*met(c)	*	*met(c)	*	*met(c)	*	*met(c)	*	*met(c)	*	*met(c)	*	*met(c)	*met(c)	*met(c)
=1	=1	=1	=1	=1	=1	=1	=1	=1	=1	=1	=1	=1	=1	=1	=1	=1	=1
!!LO:TX:a:t=P:problem:all\left, middle, right:global
!LO:TX:a:t=P::problem=wykreślone cyfrowanie&colon; 6	!	!	!	!	!	!	!	!	!	!	!	!	!	!	!	!	!
!LO:TX:a:t=Ark. No 1.o	!	!	!	!	!	!	!	!	!	!	!	!	!	!	!	!	!
!LO:TX:a:t=allo.	!	!	!	!	!	!	!LO:TX:a:B:t=Allegro.	!	!	!	!	!	!	!	!	!	!
!LO:TX:a:t=S&colon;	!	!	!LO:TX:a:B:t=Allo&colon;	!LO:DY:a:Bi:t=for&colon;	!LO:TX:a:B:t=Allo&colon;	!	!LO:TX:a:t=3	!	!LO:TX:a:B:t=Allo&colon;	!	!LO:TX:a:B:t=Allo	!	!LO:TX:a:B:t=Allo.	!	!LO:TX:t=P:problem=brak partii w źródle	!	!
8C/L	.	.	8c/	f	8c/	.	0r	.	0r	.	0r	.	0r	.	1ryy	8c/	8c/
8C/	.	.	4e/	.	4e/	.	.	.	.	.	.	.	.	.	.	4c/	4e/
8C/	.	.	.	.	.	.	.	.	.	.	.	.	.	.	.	.	.
8C/J	.	.	8e/	.	8g/	.	.	.	.	.	.	.	.	.	.	8e/	8g/
8C/L	.	.	16g\LL	.	16cc\LL	.	.	.	.	.	.	.	.	.	.	4e/	4cc\
.	.	.	16cc\JJ	.	16ee\JJ	.	.	.	.	.	.	.	.	.	.	.	.
8C/	.	.	4ee\	.	4gg\	.	.	.	.	.	.	.	.	.	.	.	.
8BB/	6 4	.	.	.	.	.	.	.	.	.	.	.	.	.	.	8ee\L	8gg\L
8GG/J	.	.	8dd\	.	8ff\	.	.	.	.	.	.	.	.	.	.	8dd\J	8ff\J
=2	=2	=2	=2	=2	=2	=2	=2	=2	=2	=2	=2	=2	=2	=2	=2	=2	=2
!	!	!	!	!LO:DY:a:Bi:t=P&colon;	!	!LO:DY:a:Bi:t=p&colon;	!	!	!	!	!	!	!	!	!	!	!
8r	.	.	16cc\LL	p	24ee\LL	p	.	.	.	.	.	.	.	.	1ryy	2r	2r
.	.	.	.	.	24dd\	.	.	.	.	.	.	.	.	.	.	.	.
.	.	.	16ee\JJ	.	.	.	.	.	.	.	.	.	.	.	.	.	.
.	.	.	.	.	24cc\JJ	.	.	.	.	.	.	.	.	.	.	.	.
8C/L	.	.	4ee\	.	4gg\	.	.	.	.	.	.	.	.	.	.	.	.
8BB/	6 4	.	.	.	.	.	.	.	.	.	.	.	.	.	.	.	.
8GG/J	.	.	8dd\	.	8ff\	.	.	.	.	.	.	.	.	.	.	.	.
!LO:TX:t=P:problem=mixed beam	!	!	!	!	!	!LO:DY:a:Bi:t=f&colon;	!	!	!	!	!	!	!	!	!	!	!
8C\L	.	.	8cc\L	.	16.ee\LL	f	.	.	.	.	.	.	.	.	.	16ee\LL	16gg\LL
.	.	.	.	.	.	.	.	.	.	.	.	.	.	.	.	16cc\J	16ee\J
.	.	.	.	.	32cc\K	.	.	.	.	.	.	.	.	.	.	.	.
!	!	!	!	!LO:DY:a:Bi:t=f&colon;	!	!	!	!	!	!	!	!	!	!	!	!	!
8A\	6 4	.	16.dd\L	f	16.ff\	.	.	.	.	.	.	.	.	.	.	8dd\J	8ff\J
.	.	.	32b\JJk	.	32dd\JJk	.	.	.	.	.	.	.	.	.	.	.	.
8G\	6 4	.	16.cc\LL	.	16.ee\LL	.	.	.	.	.	.	.	.	.	.	8cc\L	16ee\LL
.	.	.	.	.	.	.	.	.	.	.	.	.	.	.	.	.	16cc\J
.	.	.	32e\K	.	32cc\K	.	.	.	.	.	.	.	.	.	.	.	.
8GG/J	x 5	.	16.f\	.	16.dd\	.	.	.	.	.	.	.	.	.	.	16g\L	8dd\J
.	.	.	.	.	.	.	.	.	.	.	.	.	.	.	.	16g\JJ	.
.	.	.	32d\JJk	.	32b\JJk	.	.	.	.	.	.	.	.	.	.	.	.
=3	=3	=3	=3	=3	=3	=3	=3	=3	=3	=3	=3	=3	=3	=3	=3	=3	=3
!LO:TX:t=P:problem=mixed beam	!	!	!	!	!	!	!	!	!	!	!	!	!	!	!	!	!
8C/L	.	.	16e/LL	.	8.cc\L	.	1r	.	1r	.	1r	.	1r	.	1ryy	4e/	4cc\
.	.	.	16G/	.	.	.	.	.	.	.	.	.	.	.	.	.	.
8c\	.	.	16e/	.	.	.	.	.	.	.	.	.	.	.	.	.	.
.	.	.	16G/JJ	.	16g\Jk	.	.	.	.	.	.	.	.	.	.	.	.
8B\	6 4	.	16e/LL	.	8g/L	.	.	.	.	.	.	.	.	.	.	8r	8r
.	.	.	16G/	.	.	.	.	.	.	.	.	.	.	.	.	.	.
8G\J	.	.	16d/	.	8f/J	.	.	.	.	.	.	.	.	.	.	8g/	8dd\
.	.	.	16G/JJ	.	.	.	.	.	.	.	.	.	.	.	.	.	.
8r	.	.	8e/L	.	16.e/LL	.	.	.	.	.	.	.	.	.	.	4c/	4cc\
.	.	.	.	.	32g/K	.	.	.	.	.	.	.	.	.	.	.	.
8c\L	.	.	8g/J	.	16.cc/	.	.	.	.	.	.	.	.	.	.	.	.
.	.	.	.	.	32ee/JJk	.	.	.	.	.	.	.	.	.	.	.	.
8B\	6 4	.	16e/LL	.	8g/L	.	.	.	.	.	.	.	.	.	.	8r	8r
.	.	.	16G/	.	.	.	.	.	.	.	.	.	.	.	.	.	.
8G\J	.	.	16d/	.	8f/J	.	.	.	.	.	.	.	.	.	.	8g/	8dd\
.	.	.	16G/JJ	.	.	.	.	.	.	.	.	.	.	.	.	.	.
!	!	!	!	!	!LO:LB:g=original	!	!	!	!	!	!	!	!	!	!	!	!
=4	=4	=4	=4	=4	=4	=4	=4	=4	=4	=4	=4	=4	=4	=4	=4	=4	=4
!LO:TX:a:t=T&colon;	!	!	!	!	!LO:TX:a:t=T&colon;	!	!	!	!	!	!LO:TX:a:rj:t=T&colon;	!	!	!	!	!	!
8C/L	.	.	8c/	.	8c/	.	4C/	Di-	4e\	Di-	4g\	Dix-	4cc\	Di-	1ryy	8c/	4.cc\
8C/	.	.	4e/	.	4e/	.	.	.	.	.	.	.	.	.	.	4e/	.
8C/	.	.	.	.	.	.	4c\	-xit	4e\	-xit	4g\	-it	4cc\	-xit	.	.	.
8C/J	.	.	8e/	.	8g/	.	.	.	.	.	.	.	.	.	.	8g/	8cc\
!	!	!	!	!	!	!	!	!	!	!	!	!	!	!	!	!LO:LB:g=original	!
8r	.	.	16g\LL	.	16cc\LL	.	8.c\	Do-	8.c\	Do-	8.g\	Do-	8.ee\	Do-	.	16e\LL	16cc\LL
.	.	.	16cc\J	.	16ee\JJ	.	.	.	.	.	.	.	.	.	.	16cc\J	16ee\JJ
*custos:E	*	*	*	*	*	*	*	*	*	*	*	*	*	*	*	*	*
!LO:LB:g=original	!	!	!	!	!	!	!	!	!	!	!	!	!	!	!	!	!
!LO:TX:a:t=P:org:problem= wszystkie custos użyte jako łamanie pięciolinii 	!	!	!	!	!	!	!	!	!	!	!	!	!	!	!	!	!
8C/L	.	.	8ee\J	.	4gg\	.	.	.	.	.	.	.	.	.	.	8ee\J	4gg\
.	.	.	.	.	.	.	16c\	-mi-	16c\	-mi-	16g\	-mi-	16ee\	-mi-	.	.	.
!	!	!	!LO:LB:g=original	!	!	!	!	!	!	!	!	!	!	!	!	!	!
8BB/	.	.	4dd\	.	.	.	4G\	-nus	4B\	-nus	4g\	-nus	4dd\	-us	.	4dd\	.
8GG/J	.	.	.	.	8ff\	.	.	.	.	.	.	.	.	.	.	.	8ff\
!	!	!	!	!	!	!	!	!	!	!	!	!	!	!	!	!	!LO:LB:g=original
=5	=5	=5	=5	=5	=5	=5	=5	=5	=5	=5	=5	=5	=5	=5	=5	=5	=5
*	*	*	*	*	*Xtuplet	*	*	*	*	*	*	*	*	*	*	*	*
8r	.	.	16cc\LL	.	24ee\LL	.	8C/	Do-	8c\	Do-	8g\	Do-	8ee\	Do-	1ryy	8r	8r
.	.	.	.	.	24dd\	.	.	.	.	.	.	.	.	.	.	.	.
.	.	.	16ee\JJ	.	.	.	.	.	.	.	.	.	.	.	.	.	.
.	.	.	.	.	24cc\JJ	.	.	.	.	.	.	.	.	.	.	.	.
8C/L	.	.	4ee\	.	4gg\	.	16C/	-mi-	16c\	-mi-	16g\	-mi-	16ee\	-mi-	.	4ee\	4gg\
.	.	.	.	.	.	.	16C/	-no	16c\	-no	16g\	-no	16ee\	-no	.	.	.
8BB/	6 4	.	.	.	.	.	8C/	me-	8G/	me-	8g\	me-	8ee\	me-	.	.	.
8GG/J	x 5	.	8dd\	.	8ff\	.	8G\	-o	8f\	-o	8g\	-o	8dd\	-o	.	8dd\	8ff\
4C\	.	.	16cc\LL	.	16ee\LL	.	8C/	se-	8e\	Se-	8g\	se-	8cc\	se-	.	8cc\L	16ee\LL
.	.	.	16cc\	.	16ee\	.	.	.	.	.	.	.	.	.	.	.	16ee\
.	.	.	16b\	.	16dd\	.	16C/	-de	16e\	-de	16g\	-de	16cc\	-de	.	8cc\J	16dd\
.	.	.	16cc\JJ	.	16ee\JJ	.	16C/	a	16e\	à	16g\	a	16cc\	a	.	.	16ee\JJ
8r	.	.	8a/L	.	16ff\LL	.	8F\	dex-	8f\	dex-	8a\	dex-	8cc\	dex-	.	4r	8ff\L
.	.	.	.	.	16ee\	.	.	.	.	.	.	.	.	.	.	.	.
8F\	.	.	8a/J	.	16dd\	.	8F\	-tris	8d\	-tris	8a\	-tris	8dd\	-tris	.	.	8ff\J
.	.	.	.	.	16cc\JJ	.	.	.	.	.	.	.	.	.	.	.	.
!	!	!	!	!	!	!	!LO:LB:g=original	!	!	!	!	!	!LO:LB:g=original	!	!	!	!
=6	=6	=6	=6	=6	=6	=6	=6	=6	=6	=6	=6	=6	=6	=6	=6	=6	=6
8G\L	.	.	8d/L	.	8b\L	.	8G\	me-	8B\	me-	16g\LL	me-	8dd\	me-	1ryy	8dd\L	8ff\L
.	.	.	.	.	.	.	.	.	.	.	16f\JJ	.	.	.	.	.	.
8C\J	.	.	8e/J	.	8cc\J	.	8C/	-is	8c\	-is	8e\	-is	8cc\	-is	.	8cc\J	8ee\J
!	!	!	!	!	!	!	!	!	!	!	!LO:LB:g=original	!	!	!	!	!	!
8r	.	.	4ee\	.	4ee\	.	8r	.	8r	.	8r	.	8ee\	do-	.	4r	4r
8c\	.	.	.	.	.	.	16c\	do-	16c\	Do-	16g\	Do-	8ee\	-nec	.	.	.
.	.	.	.	.	.	.	16c\	-nec	16c\	-nec	16g\	-nec	.	.	.	.	.
!	!	!	!	!	!	!	!LO:SIC:v:s=8F#\	!	!LO:LB:g=original	!	!	!	!	!	!	!	!
8F#X\L	x 76	.	8ee\L	.	8ee\L	.	8F\	po-	8c\	po-	8a\	po-	8ee\	po-	.	2r	2r
!	!	!	!	!	!	!	!LO:SIC:v:s=8F#\	!	!	!	!	!	!	!	!	!	!
8F#\J	.	.	8dd\J	.	8dd\J	.	8F\	-nam	8d\	-nam	8a\	-nam	8dd\	-nam	.	.	.
!	!	!	!LO:TX:t=P:problem=mixed beam	!	!LO:TX:t=P:problem=mixed beam	!	!	!	!	!	!	!	!	!	!	!	!
!	!	!	!	!	!	!	!LO:SIC:v:s=16F#\	!	!	!	!	!	!	!	!	!	!
8r	.	.	16d/LL	.	16d/LL	.	16F\	i-	16d\	i-	16a\	i-	16cc\	i-	.	.	.
!	!	!	!	!	!	!	!LO:SIC:v:s=16F#\	!	!	!	!	!	!	!	!	!	!
.	.	.	16ff#X\	.	16ff#X\	.	16F\	-ni-	16d\	-ni-	16a\	-ni-	16cc\	-ni-	.	.	.
!	!	!	!	!	!	!	!LO:SIC:v:s=16F#\	!	!	!	!	!	!	!	!	!	!
8F#X\	.	.	16aa\	.	16aa\	.	16F\	-mi-	16d\	-mi-	16a\	-mi-	16cc\	-mi-	.	.	.
!	!	!	!	!	!	!	!LO:SIC:v:s=16F#\	!	!	!	!	!	!	!	!	!	!
.	.	.	16cc\JJ	.	16cc\JJ	.	16F\	-cos	16d\	-cos	16a\	-cos	16cc\	-cos	.	.	.
=7	=7	=7	=7	=7	=7	=7	=7	=7	=7	=7	=7	=7	=7	=7	=7	=7	=7
!LO:TX:t=P:problem=mixed beam	!	!	!	!	!	!	!	!	!	!	!	!	!	!	!	!	!
8G\L	x 43	.	8cc\L	.	8cc\L	.	8G\	tu-	8d\	Tu-	8a\	tu-	8cc\	tu-	1ryy	1r	1r
8GG/J	.	.	8b\J	.	8b\J	.	8G\	-os	8d\	-os	8g\	-os	8b\	-os	.	.	.
8r	.	.	16dd\LL	.	16dd\LL	.	8r	.	8r	.	8r	.	8r	.	.	.	.
.	.	.	16b\	.	16b\	.	.	.	.	.	.	.	.	.	.	.	.
8BB/	x 6	.	16a\	.	16a\	.	8BB/	sca-	8d\	Sca-	8g\	sca-	8dd\	sca-	.	.	.
.	.	.	16g\JJ	.	16g\JJ	.	.	.	.	.	.	.	.	.	.	.	.
8C/L	.	.	16ee\LL	.	16ee\LL	.	8C/	-bel-	8c\	-bel-	8g\	-bel-	8ee\	-bel-	.	.	.
.	.	.	16cc\	.	16cc\	.	.	.	.	.	.	.	.	.	.	.	.
8C/	.	.	16b\	.	16b\	.	8C/	-lum	8c\	-lum	8a\	-lum	8ee\	-lum	.	.	.
.	.	.	16a\JJ	.	16a\JJ	.	.	.	.	.	.	.	.	.	.	.	.
8C/	x 6	.	16ee\LL	.	16ccc\LL	.	8C/	pe-	8A\	Pe-	8a\	pe-	8ee\	pe-	.	.	.
.	.	.	16cc\	.	16aa\	.	.	.	.	.	.	.	.	.	.	.	.
8D/J	x #	.	16b\	.	16gg\	.	16D/	-dum	16d\	-dum	16a\	-dum	16dd\	-dum	.	.	.
.	.	.	16a\JJ	.	16ff#X\JJ	.	16D/	tu-	16d\	tu-	16a\	tu-	16dd\	tu-	.	.	.
!	!	!	!	!	!LO:LB:g=original	!	!	!	!	!	!	!	!	!	!	!	!
=8	=8	=8	=8	=8	=8	=8	=8	=8	=8	=8	=8	=8	=8	=8	=8	=8	=8
8E\L	.	.	8g/L	.	8.gg\L	.	4E\	-o-	8G/	-o-	8g\	-o-	8b\	-o-	1ryy	2r	2r
8E\	.	.	8g/	.	.	.	.	.	8G/	-rum	8g\	-rum	8b\	-rum	.	.	.
.	.	.	.	.	32ff#X\LL	.	.	.	.	.	.	.	.	.	.	.	.
.	.	.	.	.	32ee\JJJ	.	.	.	.	.	.	.	.	.	.	.	.
!	!	!	!	!	!	!	!	!	!	!	!	!	!LO:LB:g=original	!	!	!	!
8F#X\	.	.	8a/	.	8dd\L	.	8F#X\	-rum	4r	.	4a\	tu-	8dd\L	tu-	.	.	.
8F#\J	x 65	.	8a/J	.	8cc\J	.	8F#\	tu-	.	.	.	.	8cc\J	.	.	.	.
*custos:F	*	*	*	*	*	*	*	*	*	*	*	*	*	*	*	*	*
!LO:LB:g=original	!	!	!	!	!	!	!	!	!	!	!	!	!	!	!	!	!
!LO:TX:t=P:problem=mixed beam	!	!	!LO:TX:t=P:problem=mixed beam	!	!	!	!	!	!	!	!	!	!	!	!	!	!
8G\L	.	.	16g/LL	.	24b/LL	.	8G\L	-o-	8r	.	8g\L	-o-	8b\L	-o-	.	4r	8r
.	.	.	.	.	24a/	.	.	.	.	.	.	.	.	.	.	.	.
.	.	.	16ee\	.	.	.	.	.	.	.	.	.	.	.	.	.	.
.	.	.	.	.	24b/JJ	.	.	.	.	.	.	.	.	.	.	.	.
.	.	.	.	.	8qqdd/	.	.	.	.	.	.	.	.	.	.	.	.
8C/	.	.	16dd\	.	24cc/LL	.	8C\J	.	8e\	tu-	8a\	.	8cc\	.	.	.	8ee\
.	.	.	.	.	24b/	.	.	.	.	.	.	.	.	.	.	.	.
.	.	.	16cc\JJ	.	.	.	.	.	.	.	.	.	.	.	.	.	.
.	.	.	.	.	24a/JJ	.	.	.	.	.	.	.	.	.	.	.	.
*	*	*	*	*	*	*	*custos:D	*	*	*	*	*	*	*	*	*	*
!	!	!	!	!	!	!	!LO:LB:g=original	!	!	!	!	!	!	!	!	!	!
8D/	x 4	.	8b\L	.	8g/L	.	4D\	.	4d\	-o-	8g\	.	8b\	.	.	8dd\L	8dd\L
8D/J	x #	.	8a\J	.	8f#X/J	.	.	.	.	.	8f#X\J	.	8a\J	.	.	8dd\J	8dd\J
!	!	!	!	!	!	!	!	!	!	!	!LO:LB:g=original	!	!	!	!	!	!
=9	=9	=9	=9	=9	=9	=9	=9	=9	=9	=9	=9	=9	=9	=9	=9	=9	=9
4GG/	.	.	8g/	.	8g/	.	4GG/	-rum	4B\	-rum	4d\	-rum	4g\	-rum	1ryy	4dd\	4dd\
.	.	.	4g/	.	4b\	.	.	.	.	.	.	.	.	.	.	.	.
4r	.	.	.	.	.	.	4r	.	4r	.	4r	.	4r	.	.	4r	4r
.	.	.	8b/	.	8dd\	.	.	.	.	.	.	.	.	.	.	.	.
!LO:TX:a:rj:t=S&colon;	!	!	!	!	!	!	!	!	!	!	!	!	!	!	!	!	!
!LO:TX:t=P:problem=mixed beam	!	!LO:DY:a	!LO:LB:g=original	!	!	!	!	!	!	!	!	!	!	!	!	!	!
8GG/L	.	p	16dd\LL	.	16gg\LL	.	2r	.	2r	.	2r	.	2r	.	.	2r	2r
.	.	.	16gg\JJ	.	16bb\JJ	.	.	.	.	.	.	.	.	.	.	.	.
8G\	.	.	4bb\	.	4ddd\	.	.	.	.	.	.	.	.	.	.	.	.
8F#X\	6 4	.	.	.	.	.	.	.	.	.	.	.	.	.	.	.	.
8D\J	x #	.	8aa\	.	8ccc\	.	.	.	.	.	.	.	.	.	.	.	.
=10	=10	=10	=10	=10	=10	=10	=10	=10	=10	=10	=10	=10	=10	=10	=10	=10	=10
!	!	!	!	!	!	!	!LO:TX:a:t=4.	!	!	!	!	!	!	!	!	!	!
8G\L	.	.	8gg\L	.	8bb\L	.	00r	.	00r	.	1r	.	1r	.	1ryy	4r	4r
8E\J	.	.	16ff#X\L	.	16aa\L	.	.	.	.	.	.	.	.	.	.	.	.
.	.	.	16gg\JJ	.	16bb\JJ	.	.	.	.	.	.	.	.	.	.	.	.
4.C\	#4 2	.	4ee\	.	16ccc\LL	.	.	.	.	.	.	.	.	.	.	8r	8r
.	.	.	.	.	16bb\	.	.	.	.	.	.	.	.	.	.	.	.
!	!	!	!	!	!	!	!	!	!	!	!	!	!	!	!	!LO:LB:g=original	!
.	.	.	.	.	16aa\	.	.	.	.	.	.	.	.	.	.	8cc\	8ee\
.	.	.	.	.	16gg\JJ	.	.	.	.	.	.	.	.	.	.	.	.
.	.	.	8a\L	.	8ff#X\L	.	.	.	.	.	.	.	.	.	.	8dd\L	8ff#X\L
16BB\LL	x 6	.	16.dd\L	.	16.gg\L	.	.	.	.	.	.	.	.	.	.	8dd\J	8gg\J
16C\JJ	.	.	.	.	.	.	.	.	.	.	.	.	.	.	.	.	.
.	.	.	32cc\JJ	.	32ee\JJk	.	.	.	.	.	.	.	.	.	.	.	.
8D\L	x 4	.	8b\L	.	8dd\L	.	.	.	.	.	.	.	.	.	.	4r	4r
8D\J	x #	.	8a\J	.	8cc\J	.	.	.	.	.	.	.	.	.	.	.	.
!	!	!	!	!	!	!	!	!	!	!	!	!	!	!	!	!	!LO:LB:g=original
=11	=11	=11	=11	=11	=11	=11	=11	=11	=11	=11	=11	=11	=11	=11	=11	=11	=11
!LO:TX:t=P:problem=mixed beam	!	!	!	!	!	!LO:DY:a:Bi:t=p&colon;	!	!	!	!	!	!	!LO:TX:a:t=S&colon;	!	!	!	!
8GG/L	.	.	8g/	.	8b\	p	.	.	.	.	8r	.	4dd\	Vir-	1ryy	00r	00r
!	!	!	!	!LO:DY:a:Bi:t=P&colon;	!	!	!	!	!	!	!	!	!	!	!	!	!
8G\	.	.	4b/	p	4dd\	.	.	.	.	.	8b\	Vir-	.	.	.	.	.
8F#X\	6 4	.	.	.	.	.	.	.	.	.	8b\	-gam	8dd\	-gam	.	.	.
8D\J	x #	.	8a/	.	8cc\	.	.	.	.	.	8a\	vir-	8cc\	vir-	.	.	.
!LO:TX:t=P:problem=mixed beam	!	!	!	!	!	!	!	!	!	!	!	!	!	!	!	!	!
8G\L	.	.	16g/LL	.	16b\LL	.	.	.	.	.	16g\LL	-tu-	16b\LL	-tu-	.	.	.
.	.	.	16a/JJ	.	16cc\JJ	.	.	.	.	.	16a\JJ	.	(16cc\JJ	.	.	.	.
8GG/	.	.	4b/	.	4dd\	.	.	.	.	.	4b\	-tis	4dd\)	-[[tis]]-	.	.	.
8GG/	.	.	.	.	.	.	.	.	.	.	.	.	.	.	.	.	.
8GG/J	6_ 4_	.	8cc/	.	8ee\	.	.	.	.	.	8cc\	.	8ee\	-tis	.	.	.
!	!	!	!	!	!LO:LB:g=original	!	!	!	!	!	!	!	!	!	!	!	!
=12	=12	=12	=12	=12	=12	=12	=12	=12	=12	=12	=12	=12	=12	=12	=12	=12	=12
8GG/L	.	.	8cc\L	.	8ee\L	.	.	.	.	.	8cc\	tu-	8ee\	tu-	1ryy	.	.
8GG/	x 5	.	8b\J	.	8dd\J	.	.	.	.	.	8b\	-ae	8dd\	-ae	.	.	.
!	!	!	!	!	!LO:TX:t=P:problem=mixed beam	!	!	!	!	!	!	!	!	!	!	!	!
8BB/	.	.	8d/L	.	16gg\LL	.	.	.	.	.	4r	.	8r	.	.	.	.
.	.	.	.	.	16g/J	.	.	.	.	.	.	.	.	.	.	.	.
8GG/J	.	.	8B/J	.	8g/J	.	.	.	.	.	.	.	8g/	e-	.	.	.
.	.	.	.	.	8qqg/	.	.	.	.	.	.	.	.	.	.	.	.
8D\L	x 4	.	4.A/	.	4.f#X/	.	.	.	.	.	2r	.	4.f#X/	-mit-	.	.	.
8D\	x #	.	.	.	.	.	.	.	.	.	.	.	.	.	.	.	.
8D\	6 4	.	.	.	.	.	.	.	.	.	.	.	.	.	.	.	.
8D\J	.	.	8B/	.	8g/	.	.	.	.	.	.	.	8g/	-tet	.	.	.
!LO:LB:g=original	!	!	!	!	!	!	!	!	!	!	!	!	!LO:LB:g=original	!	!	!	!
=13	=13	=13	=13	=13	=13	=13	=13	=13	=13	=13	=13	=13	=13	=13	=13	=13	=13
8D\L	x #	.	16f#X/LL	.	16a/LL	.	.	.	.	.	16f#X\LL	Do-	16a\LL	Do-	1ryy	.	.
.	.	.	16g/JJ	.	16b/JJ	.	.	.	.	.	16g\JJ	.	16b\JJ	.	.	.	.
8D\	.	.	4a/	.	4cc\	.	.	.	.	.	4a\	.	4cc\	.	.	.	.
8F#X\	.	.	.	.	.	.	.	.	.	.	.	.	.	.	.	.	.
8G\J	.	.	8g/	.	8b\	.	.	.	.	.	8g\	-mi-	8b\	-mi-	.	.	.
!	!	!	!	!	!	!	!	!	!	!	!LO:TX:a:t=S	!	!	!	!	!	!
.	.	.	8qqg/	.	8qqb/	.	.	.	.	.	.	.	.	.	.	.	.
8D\L	x 4	.	4f#X/	.	4a/	.	.	.	.	.	4f#X\	-nus	4a\	-nus	.	.	.
8D\	x #	.	.	.	.	.	.	.	.	.	.	.	.	.	.	.	.
!	!	!	!	!LO:DY:a:Bi:t=f&colon;	!	!LO:DY:a"Bi:t=f&colon;	!	!	!	!	!	!	!	!	!	!	!
8C\	.	.	8a/L	f	8.ff#X\L	f	.	.	.	.	4r	.	4r	.	.	.	.
8C\J	x 6	.	8d/J	.	.	.	.	.	.	.	.	.	.	.	.	.	.
.	.	.	.	.	32gg\LL	.	.	.	.	.	.	.	.	.	.	.	.
.	.	.	.	.	32aa\JJJ	.	.	.	.	.	.	.	.	.	.	.	.
!	!	!	!	!	!	!	!	!	!LO:LB:g=original	!	!LO:LB:g=original	!	!	!	!	!	!
=14	=14	=14	=14	=14	=14	=14	=14	=14	=14	=14	=14	=14	=14	=14	=14	=14	=14
!	!	!	!	!	!	!	!	!	!LO:TX:a:t=S&colon;	!	!	!	!	!	!	!	!
8BB/	x 6	.	8dd\L	.	8gg\L	.	2r	.	2r	.	4r	.	4r	.	1ryy	.	.
4C/	.	.	8cc\	.	8ee\	.	.	.	.	.	.	.	.	.	.	.	.
!	!	!	!	!	!	!LO:DY:a:Bi:t=p&colon;	!	!	!	!	!	!	!	!	!	!	!
.	.	.	8a\	.	8cc\	p	.	.	.	.	8r	.	8r	.	.	.	.
!	!	!	!	!	!LO:TX:t=t&colon;	!	!	!	!	!	!	!	!	!	!	!	!
8C#X/	.	.	8g\J	.	8b\J	.	.	.	.	.	8b\	ex	8gg\	ex	.	.	.
!	!	!	!LO:LB:g=original	!LO:DY:a:Bi:t=P&colon;	!	!	!	!	!	!	!	!	!	!	!	!	!
8D\L	x 4	p	8gg\L	p	8b\L	.	4r	.	4r	.	8b\	Si-	8gg\	Sy-	.	.	.
8D\	x #	.	8ff#X\J	.	8a\J	.	.	.	.	.	8a\	-on	8ff#X\	-on	.	.	.
8F#X\	x 6	.	4r	.	4r	.	8r	.	8.c\	Do-	4r	.	4r	.	.	.	.
!	!	!	!	!	!	!	!LO:TX:a:t=S&colon;	!	!	!	!	!	!	!	!	!	!
8E\J	.	.	.	.	.	.	16A\	Do-	.	.	.	.	.	.	.	.	.
.	.	.	.	.	.	.	16G\	-mi-	16c\	-mi-	.	.	.	.	.	.	.
=15	=15	=15	=15	=15	=15	=15	=15-	=15	=15	=15	=15	=15	=15	=15	=15	=15	=15
!LO:TX:t=P:problem=mixed beam	!	!	!LO:TX:a:t=2	!	!LO:TX:a:t=2	!	!LO:SIC:v:s=16F#\	!	!	!	!	!	!	!	!	!	!
16D\LL	x #	.	0r	.	0r	.	16F\	-na-	16c\	-na-	0r	.	0r	.	1ryy	0r	0r
16G\J	.	.	.	.	.	.	16G\	-re	16B\	-re	.	.	.	.	.	.	.
8GG/J	6_ 4_	.	.	.	.	.	16c\	Do-	16e\	Do-	.	.	.	.	.	.	.
.	.	.	.	.	.	.	16c\	-mi-	16e\	-mi-	.	.	.	.	.	.	.
8GG/L	.	.	.	.	.	.	16c\	-na-	16e\	-na-	.	.	.	.	.	.	.
.	.	.	.	.	.	.	16B\	-re	16d\	-re	.	.	.	.	.	.	.
8GG/J	x 5	.	.	.	.	.	8B\	in	8d\	in	.	.	.	.	.	.	.
8F#X\L	x 6	.	.	.	.	.	8.B\	me-	8.d\	Me-	.	.	.	.	.	.	.
8D\J	.	.	.	.	.	.	.	.	.	.	.	.	.	.	.	.	.
.	.	.	.	.	.	.	16A\	-di-	16c\	-di-	.	.	.	.	.	.	.
4G\	.	.	.	.	.	.	8G\	-o	8B\	-o	.	.	.	.	.	.	.
.	.	.	.	.	.	.	16B\LL	in	16d\LL	in	.	.	.	.	.	.	.
.	.	.	.	.	.	.	16c\JJ	.	16e\JJ	.	.	.	.	.	.	.	.
!	!	!	!	!	!	!	!LO:LB:g=original	!	!	!	!	!	!	!	!	!	!
=16	=16	=16	=16	=16	=16	=16	=16	=16	=16	=16	=16	=16	=16	=16	=16	=16	=16
8r	.	.	.	.	.	.	24B\LL	me-	8.d\	me-	.	.	.	.	1ryy	.	.
.	.	.	.	.	.	.	24A\	.	.	.	.	.	.	.	.	.	.
.	.	.	.	.	.	.	24G\JJ	.	.	.	.	.	.	.	.	.	.
8F#X\L	.	.	.	.	.	.	24F#X\LL	-di-	.	.	.	.	.	.	.	.	.
.	.	.	.	.	.	.	24E\	.	.	.	.	.	.	.	.	.	.
.	.	.	.	.	.	.	.	.	16c\	-di-	.	.	.	.	.	.	.
.	.	.	.	.	.	.	24D\JJ	.	.	.	.	.	.	.	.	.	.
8G\	.	.	.	.	.	.	4G\	-o	4B\	-o	.	.	.	.	.	.	.
8E\J	.	.	.	.	.	.	.	.	.	.	.	.	.	.	.	.	.
4C/	x #	.	.	.	.	.	8G\	i-	8e\	i-	.	.	.	.	.	.	.
.	.	.	.	.	.	.	16F#X\	-ni-	16d#X\	-ni-	.	.	.	.	.	.	.
.	.	.	.	.	.	.	16G\	-mi-	16e\	-mi-	.	.	.	.	.	.	.
4AA/	x 65	.	.	.	.	.	8A\	-co-	8f#X\	-co-	.	.	.	.	.	.	.
.	.	.	.	.	.	.	16G\	-rum	16e\	-rum	.	.	.	.	.	.	.
.	.	.	.	.	.	.	16G\	Tu-	16e\	tu-	.	.	.	.	.	.	.
!	!	!	!	!	!	!	!	!	!LO:LB:g=original	!	!	!	!	!	!	!	!
=17	=17	=17	=17	=17	=17	=17	=17	=17	=17	=17	=17	=17	=17	=17	=17	=17	=17
!LO:TX:t=P:problem=mixed beam	!	!	!	!	!	!	!	!	!	!	!	!	!	!	!	!	!
8BB/L	x 4	.	4r	.	4r	.	8G\	-o-	8e\	-o-	1r	.	1r	.	1ryy	1r	1r
8B\J	x #	.	.	.	.	.	8F#X\	-rum	8d#X\	-rum	.	.	.	.	.	.	.
!	!	!	!	!LO:DY:b:rj:Bi:t=f&colon;	!	!LO:DY:b:Bi:t=f&colon;	!	!	!	!	!	!	!	!	!	!	!
4r	.	.	16bb\LL	f	16bb\LL	f	4r	.	4r	.	.	.	.	.	.	.	.
.	.	.	16ff#X\	.	16ff#X\	.	.	.	.	.	.	.	.	.	.	.	.
.	.	.	16dd#X\	.	16dd#X\	.	.	.	.	.	.	.	.	.	.	.	.
.	.	.	16b\JJ	.	16b\JJ	.	.	.	.	.	.	.	.	.	.	.	.
!LO:LB:g=original	!	!	!	!	!	!	!	!	!	!	!	!	!	!	!	!	!
8D#X\L	6 5	.	8ff#X\	.	16a/LL	.	2r	.	2r	.	.	.	.	.	.	.	.
.	.	.	.	.	16b/	.	.	.	.	.	.	.	.	.	.	.	.
8D#\	.	.	4ff#\	.	16f#X/	.	.	.	.	.	.	.	.	.	.	.	.
.	.	.	.	.	16g/JJ	.	.	.	.	.	.	.	.	.	.	.	.
8D#\	.	.	.	.	16a/LL	.	.	.	.	.	.	.	.	.	.	.	.
.	.	.	.	.	16b/	.	.	.	.	.	.	.	.	.	.	.	.
8D#\J	.	.	8ff#\	.	16f#X/	.	.	.	.	.	.	.	.	.	.	.	.
.	.	.	.	.	16g/JJ	.	.	.	.	.	.	.	.	.	.	.	.
!	!	!	!	!	!LO:LB:g=original	!	!	!	!	!	!	!	!	!	!	!	!
=18	=18	=18	=18	=18	=18	=18	=18	=18	=18	=18	=18	=18	=18	=18	=18	=18	=18
!LO:TX:a:rj:t=T&colon;	!	!	!	!	!	!	!LO:TX:a:t=T&colon;	!	!LO:TX:a:t=T&colon;	!	!LO:TX:a:rj:t=T.	!	!	!	!	!	!
8E\L	.	.	8ee\	.	8e/	.	4E\	Te-	4B\	Te-	4g\	Te-	4ee\	Te-	1ryy	8ee\L	8ee\L
8E\	.	.	4e/	.	4g/	.	.	.	.	.	.	.	.	.	.	8ee\	8ee\
8E\	.	.	.	.	.	.	8E\	-cum	8B\	-cum	8g\	-cum	8ee\	-cum	.	8ee\	8ee\
8E\J	.	.	8g/	.	8b/	.	8E\	prin-	8B\	Prin-	8g\	Prin-	8ee\	prin-	.	8ee\J	8ee\J
4E\	.	.	16b\LL	.	16ee\LL	.	8.E\	-ci-	8.B\	-ci-	8.g\	-ci-	8.ee\	-ci-	.	4ee\	4ee\
.	.	.	16ee\JJ	.	16gg\JJ	.	.	.	.	.	.	.	.	.	.	.	.
.	.	.	4gg\	.	4bb\	.	.	.	.	.	.	.	.	.	.	.	.
.	.	.	.	.	.	.	16E\	-pi-	16B\	-pi-	16g\	-pi-	16ee\	-pi-	.	.	.
8D#X\L	6 4	.	.	.	.	.	8D#X\	-um	8B\	-um	8f#X\	-um	8b\	-um	.	4r	4r
!	!	!	!	!	!	!	!LO:LB:g=original	!	!	!	!	!	!	!	!	!	!
8BB\J	x #	.	8ff#X\	.	8aa\	.	8BB/	in	8d#X\	in	8f#\	in	8b\	in	.	.	.
=19	=19	=19	=19	=19	=19	=19	=19	=19	=19	=19	=19	=19	=19	=19	=19	=19	=19
.	.	.	.	.	8qqaa/	.	.	.	.	.	.	.	.	.	.	.	.
8E\L	.	.	8ee\L	.	8gg\L	.	8E\	di-	8e\	di-	8e\	di-	8b\	di-	1ryy	00r	00r
8E\	.	.	8b\	.	16ff#X\L	.	16E\	-e	16e\	-e	16g\	-e	16b\	-e	.	.	.
.	.	.	.	.	16gg\JJ	.	16E\	vir-	16e\	vir-	16g\	Vir-	16b\	vir-	.	.	.
!	!	!	!	!	!	!	!	!	!	!	!	!	!LO:LB:g=original	!	!	!	!
8A\	.	.	8cc\	.	16aa\LL	.	8A\	-tu-	8e\	-tu-	8a\	-tu-	8cc\	-tu-	.	.	.
.	.	.	.	.	16gg\	.	.	.	.	.	.	.	.	.	.	.	.
8A\J	.	.	8cc\J	.	16ff#X\	.	8A\	-tis	8e\	-tis	8a\	-tis	8cc\	-tis	.	.	.
.	.	.	.	.	16ee\JJ	.	.	.	.	.	.	.	.	.	.	.	.
8B\L	x #	.	8b\L	.	8dd#X\L	.	8B\	tu-	8d#X\	tu-	8a\	tu-	8b\	tu-	.	.	.
8E\J	.	.	8b\J	.	8ee\J	.	8E\	ae	8e\	-ae	8g\	-ae	8b\	-ae	.	.	.
8r	.	.	4cc\	.	4ccn\	.	8r	.	8r	.	8r	.	8r	.	.	.	.
8E\	x 6	.	.	.	.	.	16E\	in	16e\	in	16g\	in	16cc\	in	.	.	.
.	.	.	.	.	.	.	16E\	splen-	16e\	Splen-	16g\	Splen-	16cc\	splen-	.	.	.
!	!	!	!	!	!	!	!	!	!	!	!LO:LB:g=original	!	!	!	!	!	!
=20	=20	=20	=20	=20	=20	=20	=20	=20	=20	=20	=20	=20	=20	=20	=20	=20	=20
8E\L	4 2	.	8a#X\L	.	8a#X/L	.	16E\	-do-	16c#X\	-do-	16f#X\	-do-	16a#X\	-do-	1ryy	.	.
.	.	.	.	.	.	.	16E\	-ri-	16c#\	-ri-	16f#\	-ri-	16a#\	-ri-	.	.	.
8D#X\J	x 6	.	8b\J	.	8b/J	.	8D#X\	-bus	8B\	-bus	8f#\	-bus	8b\	-bus	.	.	.
!	!	!	!	!	!	!	!	!	!LO:LB:g=original	!	!	!	!	!	!	!	!
8r	.	.	4ccn\	.	4ccn\	.	8r	.	8r	.	8r	.	8r	.	.	.	.
8E\	x 6	.	.	.	.	.	8E\	San-	8e\	San-	8g\	San-	8ccn\	san-	.	.	.
8E\L	#4 2	.	8a#X\L	.	8a#X\L	.	8E\	-cto-	8c#X\	-cto-	8f#\	-cto-	8a#X\	-cto-	.	.	.
8D#X\J	x 6	.	8b\J	.	8b\J	.	8D#X\	-rum	8B\	-rum	8f#\	-rum	8b\	-rum	.	.	.
8r	.	.	4aan\	.	4aan\	.	8r	.	8r	.	8r	.	8r	.	.	.	.
8BB/	.	.	.	.	.	.	8BB/	ex	8d#X\	ex	8f#X\	ex	8b\	ex	.	.	.
!	!	!	!LO:LB:g=original	!	!	!	!	!	!	!	!	!	!	!	!	!	!
=21	=21	=21	=21	=21	=21	=21	=21	=21	=21	=21	=21	=21	=21	=21	=21	=21	=21
!	!	!	!	!	!	!LO:DY:a:Bi:t=p&colon;	!	!	!	!	!	!	!	!	!	!	!
8E\L	.	.	16gg\LL	.	16gg\LL	p	16E\	u-	16e\	u-	16e\	u-	16b\	U-	1ryy	.	.
.	.	.	16ee\	.	16ee\	.	16E\	-te-	16B\	-te-	16e\	-te-	16b\	-te-	.	.	.
!	!	!	!	!	!LO:SIC:v:s=16ff#\	!	!	!	!	!	!	!	!	!	!	!	!
8A\	6\ #4	.	16ff#X\	.	16ff\	.	8A\	-ro	8A\	-ro	8f#X\	-ro	8b\	-ro	.	.	.
.	.	.	16dd#X\JJ	.	16dd#X\JJ	.	.	.	.	.	.	.	.	.	.	.	.
*	*	*	*	*	*	*	*custos:G	*	*	*	*	*	*	*	*	*	*
!	!	!	!	!	!	!	!LO:LB:g=original	!	!	!	!	!	!	!	!	!	!
8G\	x 6	.	16ee\LL	.	16ee\LL	.	8G\	an-	8B\	An-	8e\	an-	8ee\	an-	.	.	.
.	.	.	16a\	.	16ccn\	.	.	.	.	.	.	.	.	.	.	.	.
8A\J	6_ 4_	.	16g\	.	16b\	.	16A\	-te	16c\	-te	16e\	-te	16ee\	-te	.	.	.
.	.	.	16f#X\JJ	.	16a\JJ	.	16A\	Lu-	16c\	Lu-	16e\	lu-	16ee\	lu-	.	.	.
*	*	*	*	*	*	*	*	*	*	*	*	*	*custos:e	*	*	*	*
!LO:TX:t=P:problem=mixed beam	!	!	!LO:TX:t=P:problem=mixed beam	!	!	!	!	!	!	!	!	!	!LO:LB:g=original	!	!	!	!
8B\L	.	.	8e/L	.	16g/LL	.	16B\	-ci-	16B\	-ci-	16b\	-ci-	16ee\	-ci-	.	.	.
.	.	.	.	.	16e/	.	16B\	-fe-	16B\	-fe-	16b\	-fi-	16ee\	-fe-	.	.	.
8A\	.	.	8cc\	.	16cc/	.	8A\	-rum	8c\	-rum	8a\	-rum	8ee\	-rum	.	.	.
.	.	.	.	.	16a/JJ	.	.	.	.	.	.	.	.	.	.	.	.
8B\	x x	.	8b\	.	16g/LL	.	8B\	ge-	8e\	ge-	8g\	ge-	8b\	ge-	.	.	.
.	.	.	.	.	16e/	.	.	.	.	.	.	.	.	.	.	.	.
8BB/J	x #	.	8d#X/J	.	16f#X/	.	16BB/	-nu-	16d#X\	-nu-	16f#X\	-nu-	16b\	-nu-	.	.	.
.	.	.	.	.	16d#X/JJ	.	16BB/	-i-	16d#\	-i-	16f#\	-i-	16b\	-i	.	.	.
!LO:LB:g=original	!	!	!	!	!LO:LB:g=original	!	!	!	!	!	!	!	!	!	!	!	!
=22	=22	=22	=22	=22	=22	=22	=22	=22	=22	=22	=22	=22	=22	=22	=22	=22	=22
!LO:TX:a:t=S&colon;	!	!	!	!	!	!	!	!	!	!	!	!	!	!	!	!	!
4E\	.	.	8ee\	.	16e/LL	.	4E\	-te	4e\	-te	4g\	-te	4b\	te	1ryy	.	.
.	.	.	.	.	16b/	.	.	.	.	.	.	.	.	.	.	.	.
.	.	.	4ee\	.	16g/	.	.	.	.	.	.	.	.	.	.	.	.
.	.	.	.	.	16b/JJ	.	.	.	.	.	.	.	.	.	.	.	.
8r	.	.	.	.	16e/LL	.	4r	.	4r	.	4r	.	4r	.	.	.	.
.	.	.	.	.	16b/	.	.	.	.	.	.	.	.	.	.	.	.
8E\	.	.	16gg\LL	.	16g/	.	.	.	.	.	.	.	.	.	.	.	.
.	.	.	16bb\JJ	.	16e/JJ	.	.	.	.	.	.	.	.	.	.	.	.
.	.	.	8qqbb/	.	.	.	.	.	.	.	.	.	.	.	.	.	.
*	*	*	*2\right	*	*	*	*	*	*	*	*	*	*	*	*	*	*
!	!	!	!	!	!	!	!	!	!	!	!LO:LB:g=original	!	!	!	!	!	!
4BB/	x #	.	2aa\	.	16d#X/LL	.	2r	.	2r	.	2r	.	2r	.	.	.	.
.	.	.	.	.	16b/	.	.	.	.	.	.	.	.	.	.	.	.
.	.	.	.	.	16f#X/	.	.	.	.	.	.	.	.	.	.	.	.
.	.	.	.	.	16b/JJ	.	.	.	.	.	.	.	.	.	.	.	.
8r	.	.	.	.	16d#X/LL	.	.	.	.	.	.	.	.	.	.	.	.
.	.	.	.	.	16a/	.	.	.	.	.	.	.	.	.	.	.	.
8BB/	x #	.	.	.	16f#/	.	.	.	.	.	.	.	.	.	.	.	.
.	.	.	.	.	16d#/JJ	.	.	.	.	.	.	.	.	.	.	.	.
=23	=23	=23	=23	=23	=23	=23	=23	=23	=23	=23	=23	=23	=23	=23	=23	=23	=23
4F#X\	x 6\	.	8dd#X\	.	16B/LL	.	1r	.	1r	.	0r	.	0r	.	1ryy	00r	00r
.	.	.	.	.	16a/	.	.	.	.	.	.	.	.	.	.	.	.
.	.	.	4dd#\	.	16f#X/	.	.	.	.	.	.	.	.	.	.	.	.
.	.	.	.	.	16a/JJ	.	.	.	.	.	.	.	.	.	.	.	.
8r	.	.	.	.	16B/LL	.	.	.	.	.	.	.	.	.	.	.	.
.	.	.	.	.	16a/	.	.	.	.	.	.	.	.	.	.	.	.
8BB/	x #	.	16aa\LL	.	16f#X/	.	.	.	.	.	.	.	.	.	.	.	.
.	.	.	16ff#X\JJ	.	16a/JJ	.	.	.	.	.	.	.	.	.	.	.	.
!LO:TX:t=P:problem=mixed beam	!	!	!	!	!	!	!	!	!	!	!	!	!	!	!	!	!
8E\L	.	.	4aa\	.	16B/LL	.	.	.	.	.	.	.	.	.	.	.	.
.	.	.	.	.	16b/	.	.	.	.	.	.	.	.	.	.	.	.
8D#X\	.	.	.	.	16f#X/	.	.	.	.	.	.	.	.	.	.	.	.
.	.	.	.	.	16b/JJ	.	.	.	.	.	.	.	.	.	.	.	.
!	!	!	!	!	!LO:TX:t=P:problem=mixed beam	!	!	!	!	!	!	!	!	!	!	!	!
8E\	.	.	4gg\	.	16B/LL	.	.	.	.	.	.	.	.	.	.	.	.
.	.	.	.	.	16b\	.	.	.	.	.	.	.	.	.	.	.	.
8EE/J	.	.	.	.	16g\	.	.	.	.	.	.	.	.	.	.	.	.
.	.	.	.	.	16b\JJ	.	.	.	.	.	.	.	.	.	.	.	.
=24	=24	=24	=24	=24	=24	=24	=24	=24	=24	=24	=24	=24	=24	=24	=24	=24	=24
!	!	!LO:DY:a:Bi:t=p&colon;	!	!	!	!LO:DY:b:Bi:t=p&colon;	!LO:TX:a:t=S&colon;	!	!	!	!	!	!	!	!	!	!
2GG#X/	.	p	4ee\	.	1bb	p	8r	.	2r	.	.	.	.	.	1ryy	.	.
.	.	.	.	.	.	.	8E\	Ju-	.	.	.	.	.	.	.	.	.
.	.	.	4ddn\	.	.	.	8G#X\	-ra-	.	.	.	.	.	.	.	.	.
.	.	.	.	.	.	.	8B\	-vit	.	.	.	.	.	.	.	.	.
!	!	!	!	!	!	!	!	!	!LO:LB:g=original	!	!	!	!	!	!	!	!
4.GG#/	.	.	2dd\	.	.	.	8.d\	Do-	4r	.	.	.	.	.	.	.	.
.	.	.	.	.	.	.	16B\	-mi-	.	.	.	.	.	.	.	.	.
.	.	.	.	.	.	.	8G#X\	-nus	8r	.	.	.	.	.	.	.	.
!	!	!	!	!	!	!	!	!	!LO:TX:a:t=S&colon;	!	!	!	!	!	!	!	!
8E\	x #	.	.	.	.	.	8E\	et	8B\	&	.	.	.	.	.	.	.
!	!	!	!	!	!	!	!LO:LB:g=original	!	!	!	!	!	!	!	!	!	!
=25	=25	=25	=25	=25	=25	=25	=25	=25	=25	=25	=25	=25	=25	=25	=25	=25	=25
!	!	!	!	!	!	!	!	!	!	!	!LO:TX:a:rj:t=S&colon;	!	!LO:TX:a:t=S&colon;	!	!	!	!
8AA/	.	.	1r	.	1r	.	8A\	non	8c\	non	8r	.	8r	.	1ryy	.	.
8r	.	.	.	.	.	.	8r	.	8r	.	8cc\	non	8ee\	non	.	.	.
*	*	*	*	*	*	*	*	*ij	*	*ij	*	*	*	*	*	*	*
8D\	.	.	.	.	.	.	8D\	non	8A\	non	8r	.	8r	.	.	.	.
*	*	*	*	*	*	*	*	*	*	*	*	*ij	*	*ij	*	*	*
8r	.	.	.	.	.	.	8r	.	8r	.	8dd\	non	8ff\	non	.	.	.
8GG/	.	.	.	.	.	.	8Gn\	non	8B\	non	8r	.	8r	.	.	.	.
8r	.	.	.	.	.	.	8r	.	8r	.	8b\	non	8dd\	non	.	.	.
*	*	*	*	*	*	*	*	*	*	*Xij	*	*	*	*Xij	*	*	*
8C/	.	.	.	.	.	.	8C/	non	8G/	non	8r	.	8r	.	.	.	.
8r	.	.	.	.	.	.	8r	.	8r	.	8cc\	non	8ee\	non	.	.	.
*	*	*	*	*	*	*	*	*Xij	*	*	*	*Xij	*	*	*	*	*
=26	=26	=26	=26	=26	=26	=26	=26	=26	=26	=26	=26	=26	=26	=26	=26	=26	=26
!LO:TX:t=P:problem=mixed beam	!	!	!	!	!	!	!	!	!	!	!	!	!	!	!	!	!
8A\L	.	.	2r	.	2r	.	4c\	non	4r	.	2r	.	2r	.	1ryy	.	.
8AA/	.	.	.	.	.	.	.	.	.	.	.	.	.	.	.	.	.
8D/	x 6	.	.	.	.	.	8B\	pae-	8r	.	.	.	.	.	.	.	.
8D/J	x 7	.	.	.	.	.	8A\	-ni-	8e\	non	.	.	.	.	.	.	.
4E\	76 #	.	8r	.	8r	.	4G#X\	-te-	8d\	poe-	8r	.	8r	.	.	.	.
.	.	.	8b\L	.	8dd\L	.	.	.	8c\	-ni-	8b\	non	8dd\	non	.	.	.
8r	.	.	8a\	.	8cc\	.	4A\	-bit	(4e\	-te-	8a\	pae-	8cc\	pae-	.	.	.
8A\	.	.	8cc\J	.	8ee\J	.	.	.	.	.	8cc\	-ni-	8ee\	-ni-	.	.	.
!	!	!	!LO:LB:g=original	!	!	!	!	!	!	!	!	!	!	!	!	!	!
=27	=27	=27	=27	=27	=27	=27	=27	=27	=27	=27	=27	=27	=27	=27	=27	=27	=27
*	*	*	*	*	*	*	*2\right	*	*	*	*	*	*	*	*	*	*
!	!	!	!	!	!	!	!LO:SIC:v:s=2G#\	!	!	!	!	!	!	!	!	!	!
8G#X\L	.	.	4dd\	.	8ff\L	.	2G\	e-	8d\)	.	8b\	-te-	8ff\	-te-	1ryy	00r	00r
8G#\	x 7	.	.	.	8ff\	.	.	.	8d\	-bit	8b\	-bit	8ff\	-bit	.	.	.
!	!	!	!	!	!	!	!	!	!	!	!	!	!LO:LB:g=original	!	!	!	!
8G#\	x 6	.	4b\	.	8ee\	.	.	.	4e\	e-	4b\	e-	8ee\L	e-	.	.	.
8G#\J	x 5	.	.	.	8dd\J	.	.	.	.	.	.	.	8dd\J	.	.	.	.
!LO:LB:g=original	!	!	!	!	!	!	!	!	!	!	!	!	!	!	!	!	!
!LO:TX:t=P:problem=mixed beam	!	!	!	!	!LO:LB:g=original	!	!	!	!	!	!	!	!	!	!	!	!
8A\L	.	.	8e/L	.	16cc\LL	.	4G\	-um	4e\	-um	4a\	-um	4cc\	-um	.	.	.
.	.	.	.	.	16ee\	.	.	.	.	.	.	.	.	.	.	.	.
8AA/J	.	.	8e/J	.	16dd\	.	.	.	.	.	.	.	.	.	.	.	.
.	.	.	.	.	16cc\JJ	.	.	.	.	.	.	.	.	.	.	.	.
16A\LL	.	.	8b\L	.	16b/LL	.	4r	.	4r	.	4r	.	4r	.	.	.	.
!LO:SIC:v:s=16Gn\	!	!	!	!	!	!	!	!	!	!	!	!	!	!	!	!	!
16G#\	.	.	.	.	16a/	.	.	.	.	.	.	.	.	.	.	.	.
16F\	.	.	8b\J	.	16g/	.	.	.	.	.	.	.	.	.	.	.	.
16E\JJ	.	.	.	.	16f/JJ	.	.	.	.	.	.	.	.	.	.	.	.
=28	=28	=28	=28	=28	=28	=28	=28	=28	=28	=28	=28	=28	=28	=28	=28	=28	=28
!LO:TX:t=P:problem=mixed beam	!	!	!	!	!	!	!LO:TX:a:t=3	!	!LO:TX:a:rj:t=S&colon;	!	!LO:TX:a:rj:t=S&colon;	!	!	!	!	!	!
8C/L	.	.	4cc\	.	4e/	.	0r	.	4e\	Tu	4g\	Tu	0r	.	1ryy	.	.
8c\	.	.	.	.	.	.	.	.	.	.	.	.	.	.	.	.	.
8B\	6 4	.	4r	.	4r	.	.	.	8e\	es	8g\	es	.	.	.	.	.
8G\J	x 5	.	.	.	.	.	.	.	8d\	Sa-	8f\	Sa-	.	.	.	.	.
!LO:TX:t=P:problem=mixed beam	!	!	!	!	!	!	!	!	!LO:LB:g=original	!	!	!	!	!	!	!	!
8c\L	.	.	2r	.	2r	.	.	.	16c\LL	-cer-	16e\LL	-cer-	.	.	.	.	.
.	.	.	.	.	.	.	.	.	16d\JJ	.	16f\JJ	.	.	.	.	.	.
!	!	!	!	!	!	!	!	!	!	!	!LO:LB:g=original	!	!	!	!	!	!
8C/	.	.	.	.	.	.	.	.	8e\	-dos	8g\	-dos	.	.	.	.	.
8C/	.	.	.	.	.	.	.	.	8e\	in	8g\	in	.	.	.	.	.
8C/J	6_ 4_	.	.	.	.	.	.	.	8f\	ae-	8a\	ae-	.	.	.	.	.
=29	=29	=29	=29	=29	=29	=29	=29	=29	=29	=29	=29	=29	=29	=29	=29	=29	=29
8C/L	.	.	4r	.	1r	.	.	.	8f\	-ter-	8a\	-ter-	.	.	1ryy	.	.
8C/	x 5	.	.	.	.	.	.	.	8e\	-num	8g\	-num	.	.	.	.	.
8E/	.	.	8gg\L	.	.	.	.	.	4r	.	8r	.	.	.	.	.	.
8C/J	.	.	8ee\J	.	.	.	.	.	.	.	8c/	se-	.	.	.	.	.
!LO:TX:t=P:problem=mixed beam	!	!	!	!	!	!	!	!	!	!	!	!	!	!	!	!	!
.	.	.	8qqee/	.	.	.	.	.	.	.	8qqc/	.	.	.	.	.	.
8G\L	x 43	.	4.dd\	.	.	.	.	.	2r	.	4.B/	-cun-	.	.	.	.	.
8GG/J	.	.	.	.	.	.	.	.	.	.	.	.	.	.	.	.	.
4GG/	.	.	.	.	.	.	.	.	.	.	.	.	.	.	.	.	.
.	.	.	8ee\	.	.	.	.	.	.	.	8c/	-dum	.	.	.	.	.
=30	=30	=30	=30	=30	=30	=30	=30	=30	=30	=30	=30	=30	=30	=30	=30	=30	=30
8r	.	.	8ff\	.	8r	.	1r	.	16B\	Or-	16d\	or-	1r	.	1ryy	.	.
.	.	.	.	.	.	.	.	.	16c\	-di-	16e\	-di-	.	.	.	.	.
!	!	!	!	!	!	!LO:DY:a:Bi:t=p&colon;	!	!	!	!	!	!	!	!	!	!	!
8GG/L	.	.	4dd\	.	4f/	p	.	.	4d\	-nem	4f\	-nem	.	.	.	.	.
8BB/	.	.	.	.	.	.	.	.	.	.	.	.	.	.	.	.	.
8C/J	.	.	8cc\	.	8e/	.	.	.	8c\	Mel-	8e\	Mel-	.	.	.	.	.
!LO:TX:t=P:problem=mixed beam	!	!	!	!	!	!	!	!	!	!	!	!	!	!	!	!	!
8G\L	6 4	.	4cc\	.	16e/LL	.	.	.	8.c\	-chi-	8.e\	-chi-	.	.	.	.	.
.	.	.	.	.	16f/	.	.	.	.	.	.	.	.	.	.	.	.
8GG/	5 3	.	.	.	16f#X/	.	.	.	.	.	.	.	.	.	.	.	.
.	.	.	.	.	16g/JJ	.	.	.	16B\	-se-	16d\	-se-	.	.	.	.	.
8BB/	.	.	8b\L	.	8G/L	.	.	.	4B\	-dech,	4d\	-dech	.	.	.	.	.
8GG/J	.	.	8b\J	.	8g/J	.	.	.	.	.	.	.	.	.	.	.	.
=31	=31	=31	=31	=31	=31	=31	=31	=31	=31	=31	=31	=31	=31	=31	=31	=31	=31
!LO:TX:a:rj:t=Tutti	!	!	!	!	!	!LO:DY:a:Bi:t=f&colon;	!	!	!	!	!LO:TX:a:rj:t=T&colon;	!	!LO:TX:a:t=T&colon;	!	!	!	!
8GG/L	.	.	16d/LL	.	16b\LL	f	8.G\	Do-	16B\	Do-	16d\	Do-	16b\	Do-	1ryy	8dd\	8gg\
.	.	.	16e/JJ	.	16cc\JJ	.	.	.	16c\	-mi-	16e\	-mi-	16cc\	-mi-	.	.	.
!	!	!	!	!LO:DY:a:Bi:t=f&colon;	!	!	!	!	!	!	!	!	!	!	!	!	!
8GG/	x 7	.	4f/	f	4dd\	.	.	.	4d\	-nus	4f\	-nus	4dd\	-nus	.	4dd\	4bb\
.	.	.	.	.	.	.	16G\	-mi-	.	.	.	.	.	.	.	.	.
8GG/	.	.	.	.	.	.	8G\	-nus	.	.	.	.	.	.	.	.	.
8GG/J	.	.	8d/	.	8b\	.	8G\	a	8d\	à	8f\	a	8b\	a	.	8dd\	8bb\
8GG/L	6 4	.	16e/LL	.	16cc\LL	.	4G\	dex-	4c\	dex-	16e\	dex-	16cc\LL	dex-	.	8ee\L	8ccc\L
.	.	.	16f/JJ	.	16dd\JJ	.	.	.	.	.	16f\	-tris	16dd\JJ	.	.	.	.
!	!	!	!	!	!	!	!	!	!	!	!LO:LB:g=original	!	!	!	!	!	!
8GG/	.	.	4g/	.	4ee\	.	.	.	.	.	4g\	a	4ee\	.	.	16gg\L	16bb\L
.	.	.	.	.	.	.	.	.	.	.	.	.	.	.	.	16ff\JJ	16aa\JJ
8GG/	.	.	.	.	.	.	8G\	-tris	8c\	-tris	.	.	.	.	.	4ee\	4gg\
!	!	!	!	!	!	!	!LO:LB:g=original	!	!	!	!	!	!	!	!	!	!
8GG/J	.	.	8e/	.	16gg\LL	.	8G\	a	8c\	a	8e\	dex-	8cc\	-tris	.	.	.
.	.	.	.	.	16b\JJ	.	.	.	.	.	.	.	.	.	.	.	.
!LO:LB:g=original	!	!	!	!	!	!	!	!	!LO:LB:g=original	!	!	!	!	!	!	!LO:LB:g=original	!
=32	=32	=32	=32	=32	=32	=32	=32	=32	=32	=32	=32	=32	=32	=32	=32	=32	=32
8GG/L	x 5	.	16d/LL	.	16b\LL	.	4G\	dex-	16d\LL	dex-	16d\LL	.	16b\LL	a	1ryy	8dd\	8gg\
.	.	.	16e/J	.	16cc\JJ	.	.	.	16c\JJ	.	16e\JJ	.	16cc\JJ	.	.	.	.
!	!	!	!LO:N:vis=4	!	!	!	!	!	!	!	!	!	!	!	!	!	!
8GG/	.	.	8f/J	.	4dd\	.	.	.	4B\	.	4f\	.	4dd\	dex-	.	4dd\	4bb\
8GG/	.	.	4f/	.	.	.	4G\	-tris	.	.	.	.	.	.	.	.	.
8GG/J	.	.	.	.	16gg\LL	.	.	.	8d\	-tris	8f\	-tris	8b\	-tris	.	8dd\	8bb\
.	.	.	.	.	16b\JJ	.	.	.	.	.	.	.	.	.	.	.	.
!	!	!	!LO:LB:g=original	!	!	!	!	!	!	!	!	!	!	!	!	!	!
8C/L	.	.	16e/LL	.	16cc\LL	.	4C/	tu-	4c\	tu-	16e\LL	tu-	16cc\LL	tu-	.	4ee\	8ccc\L
.	.	.	16f/JJ	.	16dd\JJ	.	.	.	.	.	16f\JJ	.	16dd\JJ	.	.	.	.
!	!	!	!	!	!	!	!	!	!	!	!LO:TX:t=P:problem=korekta - chorągiewka ósemki skreślona	!	!	!	!	!	!
8C/J	.	.	4g/	.	4ee\	.	.	.	.	.	4g\	.	4ee\	-is	.	.	8gg\J
4C/	.	.	.	.	.	.	8C/	-is	8c\	-is	.	.	.	.	.	4ee\	4gg\
.	.	.	8r	.	8r	.	8C/	con-	8c\	Con-	8g\	-is	8ee\	con-	.	.	.
!	!	!	!	!	!LO:LB:g=original	!	!	!	!	!	!	!	!	!	!	!	!
=33	=33	=33	=33	=33	=33	=33	=33	=33	=33	=33	=33	=33	=33	=33	=33	=33	=33
*	*	*	*	*	*	*	*	*	*	*	*2\right	*	*2\right	*	*	*	*
2r	.	.	0r	.	0r	.	8B-X\L	-fre-	8c\L	-fre-	2g\	con-	2ee\	-fre-	1ryy	2r	2r
.	.	.	.	.	.	.	8G\	.	16B-X\L	.	.	.	.	.	.	.	.
.	.	.	.	.	.	.	.	.	16A\JJ	.	.	.	.	.	.	.	.
.	.	.	.	.	.	.	8E\	.	4B-\	.	.	.	.	.	.	.	.
.	.	.	.	.	.	.	8C#X\J	.	.	.	.	.	.	.	.	.	.
4r	.	.	.	.	.	.	16D\LL	.	4A\	-git	8g\	-fre-	8ee\	.	.	4r	4r
.	.	.	.	.	.	.	16C#\JJ	.	.	.	.	.	.	.	.	.	.
.	.	.	.	.	.	.	8D\	-git	.	.	8f#X\	-git	8dd\	-git	.	.	.
8D\L	.	.	.	.	.	.	4r	.	4r	.	4r	.	4r	.	.	8dd\L	8ff\L
8D\J	.	.	.	.	.	.	.	.	.	.	.	.	.	.	.	16dd\L	16ff\L
.	.	.	.	.	.	.	.	.	.	.	.	.	.	.	.	16dd\JJ	16ff\JJ
!	!	!	!	!	!	!	!	!	!	!	!	!	!LO:LB:g=original	!	!	!	!LO:LB:g=original
=34	=34	=34	=34	=34	=34	=34	=34	=34	=34	=34	=34	=34	=34	=34	=34	=34	=34
8D\L	.	.	.	.	.	.	4r	.	4r	.	4r	.	4r	.	1ryy	8dd\L	16ff\LL
.	.	.	.	.	.	.	.	.	.	.	.	.	.	.	.	.	16ee\
8D\J	.	.	.	.	.	.	.	.	.	.	.	.	.	.	.	8dd\J	16ff\
.	.	.	.	.	.	.	.	.	.	.	.	.	.	.	.	.	16ee\JJ
4D\	.	.	.	.	.	.	8r	.	8r	.	8r	.	8r	.	.	4dd\	4ff\
.	.	.	.	.	.	.	8D\	con-	8d\	Con-	8a\	Con-	8ff\	con-	.	.	.
2r	.	.	.	.	.	.	8c\L	-fre-	8d\L	-fre-	2a\	-fre-	2ff#X\	-fre-	.	2r	2r
.	.	.	.	.	.	.	8A\	.	16c\L	.	.	.	.	.	.	.	.
.	.	.	.	.	.	.	.	.	16B\JJ	.	.	.	.	.	.	.	.
.	.	.	.	.	.	.	8F#X\	.	(4c\	.	.	.	.	.	.	.	.
.	.	.	.	.	.	.	8D#X\J	.	.	.	.	.	.	.	.	.	.
=35	=35	=35	=35	=35	=35	=35	=35	=35	=35	=35	=35	=35	=35	=35	=35	=35	=35
!	!	!	!	!	!	!	!	!	!	!	!	!	!LO:SIC:v:s=8ff#\	!	!	!	!
4r	4 2	.	4r	.	4r	.	16E\LL	.	8B\)	.	(8a\	.	8ff\	.	1ryy	00r	00r
.	.	.	.	.	.	.	16D#X\JJ	.	.	.	.	.	.	.	.	.	.
.	.	.	.	.	.	.	8E\	-git	8B\	-git	8g\)	-git	8ee\	-git	.	.	.
!	!	!	!LO:TX:t=P:problem=mixed beam	!	!	!	!	!	!	!	!	!	!	!	!	!	!
4D\	5 2	.	8bb\L	.	8g#X\L	.	4Dn\	con-	4B\	Con-	4g#X\	con-	4ee\	con-	.	.	.
.	.	.	8g#X/J	.	8ee\J	.	.	.	.	.	.	.	.	.	.	.	.
*	*	*	*	*	*	*	*custos:D	*	*	*	*	*	*	*	*	*	*
!	!	!	!	!	!LO:TX:t=P:problem=mixed beam	!	!	!	!	!	!	!	!	!	!	!	!
!	!	!	!LO:TX:t=P:problem=mixed beam	!	!LO:TX:t=P:problem=dodatkowy ♯ poniżej	!	!LO:LB:g=original	!	!	!	!	!	!	!	!	!	!
2D\	75 n3	.	8bb\L	.	8g#X/L	.	4D\	-fre-	4B\	-fre-	4g#\	-fre-	4ff\	-fre-	.	.	.
.	.	.	8g#X/J	.	8ff\	.	.	.	.	.	.	.	.	.	.	.	.
!	!	!	!LO:TX:t=P:problem=mixed beam	!	!	!	!	!	!	!	!	!	!	!	!	!	!
.	.	.	8bb\L	.	8g#/	.	8D\	-git	8B\	-git	8g#\	-git	8ff\	-git	.	.	.
.	.	.	8g#X/J	.	8ff\J	.	8D\	con-	16B\LL	con-	8g#\	con-	8ff\	con-	.	.	.
.	.	.	.	.	.	.	.	.	16c\JJ	.	.	.	.	.	.	.	.
!	!	!	!	!	!	!	!	!	!LO:LB:g=original	!	!	!	!	!	!	!	!
=36	=36	=36	=36	=36	=36	=36	=36	=36	=36	=36	=36	=36	=36	=36	=36	=36	=36
!	!	!	!	!	!LO:TX:t=P:problem=mixed beam	!	!	!	!	!	!	!	!	!	!	!	!
2BB-X/	4_ 2_	.	16ff\LL	.	16g#X/LL	.	4BB-X/	-fre-	8d\L	-fre-	4g#X\	-fre-	4dd\	-fre-	1ryy	.	.
.	.	.	16dd\	.	16ff\	.	.	.	.	.	.	.	.	.	.	.	.
.	.	.	16ff\	.	16g#/	.	.	.	8f\J	.	.	.	.	.	.	.	.
.	.	.	16dd\JJ	.	16ff\JJ	.	.	.	.	.	.	.	.	.	.	.	.
!	!	!	!	!	!LO:TX:t=P:problem=mixed beam	!	!	!	!	!	!	!	!	!	!	!	!
.	.	.	8ff\L	.	8g#/L	.	8BB-/	-git	8f\	-git	8g#\	-git	8dd\	-git	.	.	.
.	.	.	8dd\J	.	8ff\J	.	8B-X\	in	8d\	in	8g#\	in	8dd\	in	.	.	.
!	!	!	!	!	!	!	!	!	!	!	!LO:LB:g=original	!	!	!	!	!	!
8AA/	5 3	.	8c/	.	8a\L	.	8A\	di-	8e\	di-	8a\	di-	8cc\	di-	.	.	.
4.GG/	x_ #4_	.	4bb-X\	.	8ee\	.	8G\	-e	8c#X\	-e	8b-X\	-ae	8ee\	-e	.	.	.
.	.	.	.	.	8cc#X\	.	8G\	i-	8e\	i-	8b-\L	i-	8cc#X\	i-	.	.	.
.	.	.	8ee\	.	8bb-X\J	.	8G\	-rae	8A/	-rae	8b-\J	-rae	8cc#\	-rae	.	.	.
=37	=37	=37	=37	=37	=37	=37	=37	=37	=37	=37	=37	=37	=37	=37	=37	=37	=37
!	!	!	!LO:TX:t=P:problem=mixed beam	!	!	!	!	!	!	!	!LO:SIC:v:s=8b-\L	!	!	!	!	!	!
2E-X\	.	.	8gg\L	.	16cc#X\LL	.	4.E-X\	su-	4.G/	Su-	8b\L	Su-	4.cc#X\	su-	1ryy	.	.
.	.	.	.	.	16bb-X\	.	.	.	.	.	.	.	.	.	.	.	.
.	.	.	8g/	.	16cc#\	.	.	.	.	.	8g\J	.	.	.	.	.	.
.	.	.	.	.	16bb-\JJ	.	.	.	.	.	.	.	.	.	.	.	.
.	.	.	8gg\	.	8cc#\L	.	.	.	.	.	4g\	-ae	.	.	.	.	.
.	.	.	8g/J	.	8bb-X\J	.	8E-\	-ae	8G/	-ae	.	.	8cc#\	-ae	.	.	.
!	!	!	!LO:TX:t=P:problem=mixed beam	!	!	!	!	!	!	!	!	!	!	!	!	!	!
8D\	x 8	.	8f/L	.	8dd\L	.	8D\	re-	(8A\L	re-	8f\	Re-	8dd\	re-	.	.	.
4.C\	x #	.	8a#X/	.	16ee\L	.	8C\	-ges	8B-X\J)	.	8f\	-ges	8ee\	-ges	.	.	.
.	x 6\_	.	.	.	16ee\JJ	.	.	.	.	.	.	.	.	.	.	.	.
!	!	!	!	!	!	!	!	!	!	!	!	!	!LO:LB:g=original	!	!	!	!
.	.	.	8e/	.	8aa#X\L	.	4C\	con-	4B-\	-ges	4g\	Con-	4ee\	con-	.	.	.
.	.	.	8gg\J	.	8ee\J	.	.	.	.	.	.	.	.	.	.	.	.
=38	=38	=38	=38	=38	=38	=38	=38	=38	=38	=38	=38	=38	=38	=38	=38	=38	=38
!	!	!	!LO:TX:t=P:problem=mixed beam	!	!	!	!	!	!	!	!	!	!LO:TX:t=P:problem=wykreślona 8ee\	!	!	!	!
2C/	x #	.	8a#X\L	.	16ee\LL	.	4C/	-fre-	4B-X\	Con-	4f#X\	-fre-	4ee\	-fre-	1ryy	.	.
.	.	.	.	.	16aa#X\	.	.	.	.	.	.	.	.	.	.	.	.
.	.	.	8gg\	.	16ee\	.	.	.	.	.	.	.	.	.	.	.	.
.	.	.	.	.	16aa#\JJ	.	.	.	.	.	.	.	.	.	.	.	.
.	.	.	8e/	.	8ee\L	.	8C/	-git	8B-\	-fre-	8f#\	-git	8ee\	-git	.	.	.
.	.	.	8ee\J	.	8aa#\J	.	8C/	in	16B-\	-git	8f#\	in	8ee\	in	.	.	.
.	.	.	.	.	.	.	.	.	16B-\	in	.	.	.	.	.	.	.
!	!	!	!	!	!LO:TX:t=P:problem=mixed beam	!	!	!	!	!	!	!	!	!	!	!	!
8BB/	# n	.	8dd#X\	.	8bb\L	.	8BB/	di-	8Bn\	di-	8f#\	di-	8dd#X\	di-	.	.	.
4.D\	4 2	.	4b\	.	16b/L	.	8D\	-e	16B\LL	-e	8g#X\	-e	8b\	-e	.	.	.
.	.	.	.	.	16dd/JJ	.	.	.	16d\JJ	.	.	.	.	.	.	.	.
*	*	*	*	*	*	*	*custos:D	*	*	*	*	*	*	*	*	*	*
!	!	!	!	!	!	!	!LO:LB:g=original	!	!	!	!	!	!	!	!	!	!
.	.	.	.	.	8ffn\L	.	8D\	i-	8f\	i-	8g#\	i-	8b\	i-	.	.	.
.	.	.	8b\	.	8gg#X\J	.	8D\	-rae	8f\	-rae	8g#\	-rae	8b\	-rae	.	.	.
!LO:LB:g=original	!	!	!LO:LB:g=original	!	!LO:LB:g=original	!	!	!	!	!	!	!	!	!	!	!	!
=39	=39	=39	=39	=39	=39	=39	=39	=39	=39	=39	=39	=39	=39	=39	=39	=39	=39
*2\right	*	*	*	*	*	*	*	*	*	*	*	*	*	*	*	*	*
2D\	#4 2	.	8g#X/L	.	8bb\L	.	4D\	su-	4e\	Su-	8b\L	Su-	(8g#X\L	su-	1ryy	2r	2r
.	.	.	8b/	.	8gg#X\	.	.	.	.	.	8g#X\J	.	8b\J)	.	.	.	.
.	.	.	8g#/	.	8ee\	.	4D\	-ae	4e\	-ae	4g#\	-ae	8ee\L	-ae	.	.	.
.	.	.	8g#/J	.	8b\J	.	.	.	.	.	.	.	8g#\J	.	.	.	.
8C\L	x 6	.	8a/	.	8a\L	.	8C\L	re-	(4A\	Re-	8e\	Re-	4.a\	re-	.	4r	4r
8F\	.	.	4a/	.	16aa\L	.	8F\	.	.	.	4fn\	.	.	.	.	.	.
.	.	.	.	.	16a\JJ	.	.	.	.	.	.	.	.	.	.	.	.
!	!	!	!	!	!LO:TX:t=t&colon;	!	!	!	!	!	!	!	!	!	!	!	!
8D\	6 5	.	.	.	4b\	.	8D\	.	4B\)	.	.	.	.	.	.	8r	8r
8E\J	x #	.	8g#X/	.	.	.	8E\J	.	.	.	8e\	.	8g#X\	.	.	8ee\	8ee\
!	!	!	!	!	!	!	!	!	!	!	!LO:LB:g=original	!	!	!	!	!	!
=40	=40	=40	=40	=40	=40	=40	=40	=40	=40	=40	=40	=40	=40	=40	=40	=40	=40
!LO:TX:a:t=S&colon;	!	!	!	!	!	!LO:DY:a:Bi:t=f&colon;	!	!	!	!	!	!	!	!	!	!	!
4AA/	.	.	8A/	.	8A/	f	4AA/	-ges	4A\	-ges	4e\	-ges	4a\	-ges	1ryy	4ee\	4ee\
.	.	.	4A/	.	4c/	.	.	.	.	.	.	.	.	.	.	.	.
!	!	!LO:DY:a:rj:Bi:t=p&colon;	!	!	!	!	!	!	!	!	!	!	!	!	!	!	!
8AA/L	.	p	.	.	.	.	4r	.	4r	.	4r	.	4r	.	.	4r	4r
8AA/J	.	.	8c/	.	8e/	.	.	.	.	.	.	.	.	.	.	.	.
!LO:TX:t=P:problem=mixed beam	!	!	!	!	!	!	!	!	!	!	!	!	!	!	!	!	!
8AA/L	.	.	16e/LL	.	16a\LL	.	2r	.	2r	.	2r	.	2r	.	.	2r	2r
.	.	.	16a/JJ	.	16cc\JJ	.	.	.	.	.	.	.	.	.	.	.	.
8A\	.	.	4cc\	.	4ee\	.	.	.	.	.	.	.	.	.	.	.	.
8G#X\	x 6	.	.	.	.	.	.	.	.	.	.	.	.	.	.	.	.
8E\J	.	.	8b\	.	8dd\	.	.	.	.	.	.	.	.	.	.	.	.
=41	=41	=41	=41	=41	=41	=41	=41	=41	=41	=41	=41	=41	=41	=41	=41	=41	=41
8A\L	.	.	8a/L	.	16cc\LL	.	00r	.	00r	.	1r	.	1r	.	1ryy	00r	00r
.	.	.	.	.	16a\	.	.	.	.	.	.	.	.	.	.	.	.
8D\J	.	.	8a/	.	16ff\	.	.	.	.	.	.	.	.	.	.	.	.
.	.	.	.	.	16ee\JJ	.	.	.	.	.	.	.	.	.	.	.	.
8r	.	.	8f/	.	16dd\LL	.	.	.	.	.	.	.	.	.	.	.	.
.	.	.	.	.	16cc\	.	.	.	.	.	.	.	.	.	.	.	.
8D\	.	.	8f/J	.	16b\	.	.	.	.	.	.	.	.	.	.	.	.
.	.	.	.	.	16a\JJ	.	.	.	.	.	.	.	.	.	.	.	.
.	.	.	.	.	8qqa/	.	.	.	.	.	.	.	.	.	.	.	.
8E\L	x #	.	8B/	.	4g#X/	.	.	.	.	.	.	.	.	.	.	.	.
8D\	.	.	4e/	.	.	.	.	.	.	.	.	.	.	.	.	.	.
8C\	x 6	.	.	.	4a/	.	.	.	.	.	.	.	.	.	.	.	.
8AA\J	.	.	8c/	.	.	.	.	.	.	.	.	.	.	.	.	.	.
=42	=42	=42	=42	=42	=42	=42	=42	=42	=42	=42	=42	=42	=42	=42	=42	=42	=42
!	!	!	!	!LO:DY:b:Bi:t=P&colon;	!	!LO:DY:a:Bi:t=p&colon;	!	!	!	!	!LO:TX:a:rj:t=S&colon;	!	!	!	!	!	!
8F\L	.	.	4.a/	p	4.cc\	p	.	.	.	.	4.a\	Ju-	4.cc\	Ju-	1ryy	.	.
8C\	.	.	.	.	.	.	.	.	.	.	.	.	.	.	.	.	.
8D\	.	.	.	.	.	.	.	.	.	.	.	.	.	.	.	.	.
8E\J	x 5-	.	8g/	.	8b-X\	.	.	.	.	.	8g\	-di-	8b-X\	-di-	.	.	.
!	!	!	!	!	!	!	!	!	!	!	!	!	!LO:LB:g=original	!	!	!	!
8F\L	.	.	16f/LL	.	16a\LL	.	.	.	.	.	16f\LL	-ca-	16a\LL	-ca-	.	.	.
.	.	.	16g/JJ	.	16b-X\JJ	.	.	.	.	.	16g\JJ	.	16b-\JJ	.	.	.	.
8F\	.	.	4a/	.	4cc\	.	.	.	.	.	16a\	-bit	16cc\	-bit	.	.	.
.	.	.	.	.	.	.	.	.	.	.	16a\	in	16cc\	in	.	.	.
8F\	.	.	.	.	.	.	.	.	.	.	8a\	na-	8cc\	na-	.	.	.
8F\J	6_ 4-_	.	8b-X/	.	8dd\	.	.	.	.	.	8b-X\	-ti-	8dd\	-ti-	.	.	.
=43	=43	=43	=43	=43	=43	=43	=43	=43	=43	=43	=43	=43	=43	=43	=43	=43	=43
!	!	!	!LO:SIC:v:s=8b-/L	!	!LO:TX:t=P:problem=mixed beam	!	!	!	!	!	!LO:SIC:v:s=16b-\	!	!	!	!	!	!
8F\L	.	.	8b/L	.	8dd\L	.	.	.	.	.	16b\	-o-	16dd\	-o-	1ryy	.	.
.	.	.	.	.	.	.	.	.	.	.	16a\	-ni-	16cc\	-ni-	.	.	.
8F\	x 5	.	8a/	.	8cc\	.	.	.	.	.	8a\	-bus	8cc\	-bus	.	.	.
!	!	!	!	!	!	!	!	!	!	!	!LO:N:vis=4	!	!	!	!	!	!
8D\	.	.	8a/	.	8ff\	.	.	.	.	.	2r	.	8r	.	.	.	.
8BB\J	.	.	8A/J	.	8f/J	.	.	.	.	.	.	.	8f/	im-	.	.	.
.	.	.	.	.	8qqf/	.	.	.	.	.	.	.	.	.	.	.	.
8C/L	x 43_	.	4.G/	.	4.e/	.	.	.	.	.	.	.	4.e/	-ple-	.	.	.
8CC/	.	.	.	.	.	.	.	.	.	.	.	.	.	.	.	.	.
8BB-X/	.	.	.	.	.	.	.	.	.	.	8r	.	.	.	.	.	.
8AA/J	x 6	.	8c/	.	8f/	.	.	.	.	.	(8f\	im-	8f/	.	.	.	.
!LO:LB:g=original	!	!	!LO:LB:g=original	!	!	!	!	!	!	!	!	!	!	!	!	!	!
=44	=44	=44	=44	=44	=44	=44	=44	=44	=44	=44	=44	=44	=44	=44	=44	=44	=44
8r	.	.	16a/LL	.	16cc\LL	.	.	.	.	.	16a\LL)	.	16ff\LL	.	1ryy	.	.
.	.	.	16b-X/JJ	.	16dd\JJ	.	.	.	.	.	16b-X\JJ	-ple-	16dd\JJ	.	.	.	.
8C\L	x 7	.	4g/	.	4b-X\	.	.	.	.	.	4g\	-bit	4b-X\	-bit	.	.	.
8E\	.	.	.	.	.	.	.	.	.	.	.	.	.	.	.	.	.
8F\J	.	.	8f/	.	8a\	.	.	.	.	.	8f\	ru-	8a\	ru-	.	.	.
!LO:TX:t=P:problem=mixed beam	!	!	!	!	!LO:LB:g=original	!	!	!	!	!	!	!	!	!	!	!	!
8.c\L	x 4	.	8f/L	.	8a/L	.	.	.	.	.	8f\	-i-	8a\	-i-	.	.	.
.	.	.	8e/J	.	8g/J	.	.	.	.	.	8e\	-nas	8g\	-nas	.	.	.
16C/K	x 3	.	.	.	.	.	.	.	.	.	.	.	.	.	.	.	.
!	!	!	!	!	!LO:TX:t=P:problem=mixed beam	!	!	!	!	!	!	!	!	!	!	!	!
8.C/	.	.	16.G/LL	.	16.e/LL	.	.	.	.	.	4r	.	8r	.	.	.	.
.	.	.	32g/K	.	32ee\K	.	.	.	.	.	.	.	.	.	.	.	.
.	.	.	16.G/	.	16.e/	.	.	.	.	.	.	.	16cc\	con-	.	.	.
16C/Jk	.	.	.	.	.	.	.	.	.	.	.	.	16cc\	-quaſ-	.	.	.
.	.	.	32g/JJk	.	32ee\JJk	.	.	.	.	.	.	.	.	.	.	.	.
!	!	!	!	!	!	!	!	!	!	!	!LO:LB:g=original	!	!LO:LB:g=original	!	!	!	!
=45	=45	=45	=45	=45	=45	=45	=45	=45	=45	=45	=45	=45	=45	=45	=45	=45	=45
!LO:TX:b:t=Tasto	!	!	!	!	!	!	!	!	!	!	!	!	!	!	!	!	!
8.C/L	.	.	4g/	.	16.e/LL	.	00r	.	00r	.	8r	.	2cc\	-sa-	1ryy	00r	00r
.	.	.	.	.	32g/K	.	.	.	.	.	.	.	.	.	.	.	.
.	.	.	.	.	16.cc/	.	.	.	.	.	16cc\	Con-	.	.	.	.	.
16C/K	.	.	.	.	.	.	.	.	.	.	16cc\	-qaſ-	.	.	.	.	.
.	.	.	.	.	32ee/JJk	.	.	.	.	.	.	.	.	.	.	.	.
8.C/	.	.	16.c/LL	.	16r	.	.	.	.	.	8cc\	-sa-	.	.	.	.	.
!	!	!	!	!	!	!LO:DY:b:Bi:t=f&colon;	!	!	!	!	!	!	!	!	!	!	!
.	.	.	.	.	16g\LL	f	.	.	.	.	.	.	.	.	.	.	.
.	.	.	32e/K	.	.	.	.	.	.	.	.	.	.	.	.	.	.
.	.	.	16.g/	.	16.cc\	.	.	.	.	.	8cc\	-bi	.	.	.	.	.
16C/Jk	.	.	.	.	.	.	.	.	.	.	.	.	.	.	.	.	.
.	.	.	32cc/JJk	.	32ee\JJk	.	.	.	.	.	.	.	.	.	.	.	.
8.C/L	.	.	16r	.	16.f/LL	.	.	.	.	.	2cc\	ca-	2dd\	.	.	.	.
.	.	.	16f\LL	.	.	.	.	.	.	.	.	.	.	.	.	.	.
.	.	.	.	.	32a/K	.	.	.	.	.	.	.	.	.	.	.	.
.	.	.	16a\	.	16.dd/	.	.	.	.	.	.	.	.	.	.	.	.
16C/K	.	.	16dd\JJ	.	.	.	.	.	.	.	.	.	.	.	.	.	.
.	.	.	.	.	32ff/JJk	.	.	.	.	.	.	.	.	.	.	.	.
8.C/	.	.	16f\LL	.	16r	.	.	.	.	.	.	.	.	.	.	.	.
.	.	.	16cc\	.	16a\LL	.	.	.	.	.	.	.	.	.	.	.	.
.	.	.	16a\	.	16.dd\	.	.	.	.	.	.	.	.	.	.	.	.
16C/Jk	.	.	16dd\JJ	.	.	.	.	.	.	.	.	.	.	.	.	.	.
.	.	.	.	.	32ff\JJk	.	.	.	.	.	.	.	.	.	.	.	.
=46	=46	=46	=46	=46	=46	=46	=46	=46	=46	=46	=46	=46	=46	=46	=46	=46	=46
8.C/L	.	.	16r	.	16.g\LL	.	.	.	.	.	2bn\	.	4.dd\	.	1ryy	.	.
.	.	.	16f\LL	.	.	.	.	.	.	.	.	.	.	.	.	.	.
.	.	.	.	.	32b\K	.	.	.	.	.	.	.	.	.	.	.	.
!	!	!	!LO:TX:a:t=h	!	!	!	!	!	!	!	!	!	!	!	!	!	!
.	.	.	16b\	.	16.dd\	.	.	.	.	.	.	.	.	.	.	.	.
16C/K	.	.	16dd\JJ	.	.	.	.	.	.	.	.	.	.	.	.	.	.
.	.	.	.	.	32ff\JJk	.	.	.	.	.	.	.	.	.	.	.	.
8.C/	.	.	16b\LL	.	16r	.	.	.	.	.	.	.	.	.	.	.	.
!	!	!	!	!	!LO:N:vis=8	!	!	!	!	!	!	!	!	!	!	!	!
.	.	.	16f\	.	16g\LL	.	.	.	.	.	.	.	.	.	.	.	.
!	!	!	!	!	!LO:SIC:v:s=16.b\	!	!	!	!	!	!	!	!	!	!	!	!
.	.	.	16b\	.	16.cc\	.	.	.	.	.	.	.	8dd\	-bit	.	.	.
16C/Jk	.	.	16dd\JJ	.	.	.	.	.	.	.	.	.	.	.	.	.	.
.	.	.	.	.	32ff\JJk	.	.	.	.	.	.	.	.	.	.	.	.
8.C/L	.	.	16r	.	16.g\LL	.	.	.	.	.	2b-X\	.	2ee\	ca-	.	.	.
.	.	.	16g\LL	.	.	.	.	.	.	.	.	.	.	.	.	.	.
.	.	.	.	.	32b-X\K	.	.	.	.	.	.	.	.	.	.	.	.
.	.	.	16b-X\	.	16.ee\	.	.	.	.	.	.	.	.	.	.	.	.
16C/K	.	.	16ee\JJ	.	.	.	.	.	.	.	.	.	.	.	.	.	.
.	.	.	.	.	32gg\JJk	.	.	.	.	.	.	.	.	.	.	.	.
8.C/	.	.	16b-\LL	.	16r	.	.	.	.	.	.	.	.	.	.	.	.
.	.	.	16g\	.	16b-\LL	.	.	.	.	.	.	.	.	.	.	.	.
.	.	.	16b-\	.	16.ee\	.	.	.	.	.	.	.	.	.	.	.	.
16C/Jk	.	.	16ee\JJ	.	.	.	.	.	.	.	.	.	.	.	.	.	.
.	.	.	.	.	32gg\JJk	.	.	.	.	.	.	.	.	.	.	.	.
=47	=47	=47	=47	=47	=47	=47	=47	=47	=47	=47	=47	=47	=47	=47	=47	=47	=47
!LO:TX:t=P:problem=mixed beam	!	!	!	!	!	!	!	!	!	!	!	!	!	!	!	!	!
8FF/L	x 5	.	16a\LL	.	16ff\LL	.	.	.	.	.	8.a\	.	8.ff\	.	1ryy	.	.
.	.	.	16b-X\	.	16gg\	.	.	.	.	.	.	.	.	.	.	.	.
8FF/	.	.	16cc\	.	16aa\	.	.	.	.	.	.	.	.	.	.	.	.
.	.	.	16b-\JJ	.	16gg\JJ	.	.	.	.	.	16a\	-pi-	16cc\	-pi-	.	.	.
8F\	.	.	4a/	.	4ff\	.	.	.	.	.	8a\	-ta	8cc\	-ta	.	.	.
8F\J	.	.	.	.	.	.	.	.	.	.	8a\	in	8ff\	in	.	.	.
8D/L	.	.	8r	.	8r	.	.	.	.	.	4f\	ter-	4f/	ter-	.	.	.
!	!	!	!LO:LB:g=original	!	!	!	!	!	!	!	!	!	!	!	!	!	!
8D/	.	.	8A/	.	8f/	.	.	.	.	.	.	.	.	.	.	.	.
8AA/	.	.	8r	.	8r	.	.	.	.	.	8f\	-ra	8f/	-ra	.	.	.
8AA/J	x 6	.	8c/	.	8f/	.	.	.	.	.	8f\	mul-	8f/	mul-	.	.	.
!	!	!	!	!	!LO:LB:g=original	!	!	!	!	!	!	!	!	!	!	!	!
=48	=48	=48	=48	=48	=48	=48	=48	=48	=48	=48	=48	=48	=48	=48	=48	=48	=48
8BB-X/L	6 5	.	8r	.	8r	.	.	.	.	.	8f\L	-to-	2g/	-to-	1ryy	.	.
8BB-/	.	.	8f/	.	8dd\	.	.	.	.	.	16e\L	.	.	.	.	.	.
.	.	.	.	.	.	.	.	.	.	.	16d\JJ	.	.	.	.	.	.
8C/	.	.	8r	.	8r	.	.	.	.	.	4e\	.	.	.	.	.	.
8C/J	.	.	8B-X/	.	8e/	.	.	.	.	.	.	.	.	.	.	.	.
!	!	!	!LO:TX:t=P:problem=mixed beam	!	!LO:TX:t=P:problem=mixed beam	!	!	!	!	!	!	!	!	!	!	!	!
4FF/	.	.	16A/LL	.	16f/LL	.	.	.	.	.	4f\	-rum	4f/	-rum	.	.	.
.	.	.	16aa\	.	16aa\	.	.	.	.	.	.	.	.	.	.	.	.
.	.	.	16ff\	.	16ff\	.	.	.	.	.	.	.	.	.	.	.	.
.	.	.	16cc\JJ	.	16cc\JJ	.	.	.	.	.	.	.	.	.	.	.	.
4r	.	.	16a/LL	.	16a/LL	.	.	.	.	.	4r	.	4r	.	.	.	.
.	.	.	16f/	.	16f/	.	.	.	.	.	.	.	.	.	.	.	.
.	.	.	16d/	.	16d/	.	.	.	.	.	.	.	.	.	.	.	.
.	.	.	16Bn/JJ	.	16Bn/JJ	.	.	.	.	.	.	.	.	.	.	.	.
!LO:LB:g=original	!	!	!	!	!	!	!	!	!LO:LB:g=original	!	!LO:LB:g=original	!	!	!	!	!LO:LB:g=original	!
=49	=49	=49	=49	=49	=49	=49	=49	=49	=49	=49	=49	=49	=49	=49	=49	=49	=49
!	!	!	!	!	!	!	!	!	!	!	!	!	!LO:TX:a:t=T&colon;	!	!	!	!
8C/L	.	.	8c/	.	8c/	.	8C/	De	8G/	De	8e\	De	8cc\	de	1ryy	8c/	8c/
!	!	!	!	!LO:DY:a:Bi:t=f&colon;	!	!	!	!	!	!	!	!	!	!	!	!	!
8C/	.	.	4c/	f	4e/	.	8C/	tor-	8G/	tor-	8e\	tor-	8cc\	Tor-	.	4e/	4e/
8C/	.	.	.	.	.	.	8C/	-ren-	8G/	-ren-	8e\	-ren-	8cc\	-ren-	.	.	.
8C/J	.	.	8e/	.	8g/	.	16C/	-te	16G/	-te	16e\	-te	16cc\	-te	.	8g/	8g/
.	.	.	.	.	.	.	16C/	in	16G/	in	16e\	in	16cc\	in	.	.	.
*	*	*	*	*	*	*	*	*	*	*	*	*	*custos:e	*	*	*	*
!	!	!	!	!	!	!	!	!	!	!	!	!	!LO:PB:g=original	!	!	!	!
8r	.	.	16g\LL	.	16cc\LL	.	4C/	vi-	4G/	vi-	4.g\	vi-	4.ee\	Vi-	.	4cc\	4cc\
.	.	.	16cc\JJ	.	16ee\JJ	.	.	.	.	.	.	.	.	.	.	.	.
8c\L	.	.	4ee\	.	4gg\	.	.	.	.	.	.	.	.	.	.	.	.
8Bn\	6 4	.	.	.	.	.	4G\	-a	4G/	-a	.	.	.	.	.	8gg\L	8gg\L
8G\J	.	.	8dd\	.	8ff\	.	.	.	.	.	8f\	-a	8dd\	-a	.	8ff\J	8ff\J
=50	=50	=50	=50	=50	=50	=50	=50	=50	=50	=50	=50	=50	=50	=50	=50	=50	=50
!	!	!	!	!	!	!LO:DY:a:Bi:t=p&colon;	!	!	!	!	!	!	!	!	!	!	!
8r	.	.	16cc\LL	.	24ee\LL	p	8c\	bi-	8G/	bi-	8e\	bi-	8cc\	bi-	1ryy	2r	2r
.	.	.	.	.	24dd\	.	.	.	.	.	.	.	.	.	.	.	.
!	!	!	!	!LO:DY:a:Bi:t=P&colon;	!	!	!	!	!	!	!	!	!	!	!	!	!
.	.	.	16ee\JJ	p	.	.	.	.	.	.	.	.	.	.	.	.	.
.	.	.	.	.	24cc\JJ	.	.	.	.	.	.	.	.	.	.	.	.
!	!	!LO:DY:a:Bi:t=p&colon;	!	!	!	!	!	!	!	!	!	!	!	!	!	!	!
8c\L	.	p	4ee\	.	4gg\	.	8C/	-bet	8G/	-bet	8e\	-bet	8cc\	-bet	.	.	.
8B\	6 4	.	.	.	.	.	8r	.	8r	.	8r	.	8r	.	.	.	.
8G\J	x 7	.	8dd\	.	8ff\	.	8G\	prob-	8B\	pro-	8g\	pro-	8dd\	pro-	.	.	.
!LO:TX:t=P:problem=mixed beam	!	!	!	!	!	!LO:DY:a:Bi:t=f&colon;	!LO:LB:g=original	!	!	!	!	!	!	!	!	!	!
8C\L	.	.	16.cc\LL	.	16.ee\LL	f	16C/	-ter-	16e\	-pte-	16g\	-pte-	16cc\	-pte-	.	8ee\L	8ee\L
.	.	.	.	.	.	.	16C/	-re-	16e\	-re-	16g\	-re-	16cc\	-re-	.	.	.
!	!	!	!	!LO:DY:a:Bi:t=f&colon;	!	!	!	!	!	!	!	!	!	!	!	!	!
.	.	.	32cc\K	f	32ee\K	.	.	.	.	.	.	.	.	.	.	.	.
8F\	.	.	16.dd\	.	16.ff\	.	8F\	-a	8c\	-a	8g\	-a	8dd\	-a	.	16ff\L	16ff\L
.	.	.	.	.	.	.	.	.	.	.	.	.	.	.	.	16dd\JJ	16dd\JJ
.	.	.	32b\JJk	.	32dd\JJk	.	.	.	.	.	.	.	.	.	.	.	.
!	!	!	!LO:TX:t=P:problem=mixed beam	!	!	!	!	!	!	!	!	!	!	!	!	!	!LO:N:vis=16
8G\	x 4	.	16.cc\LL	.	16.ee\LL	.	8G\	e-	8c\	E-	8g\	e-	8ee\	e-	.	8ee\L	8ee\L
.	.	.	.	.	.	.	.	.	.	.	.	.	.	.	.	.	.
.	.	.	32e/K	.	32cc\K	.	.	.	.	.	.	.	.	.	.	.	.
8GG/J	x 3	.	16.f/	.	16.dd\	.	8G\	-xal-	8B\	-xal-	8g\	-xal-	8dd\	-xal-	.	16cc\L	16cc\L
!	!	!	!	!	!	!	!	!	!	!	!	!	!	!	!	!	!LO:N:vis=8
.	.	.	.	.	.	.	.	.	.	.	.	.	.	.	.	16dd\JJ	16dd\JJ
.	.	.	32d/JJk	.	32b\JJk	.	.	.	.	.	.	.	.	.	.	.	.
!	!	!	!	!	!	!	!	!	!	!	!	!	!	!	!	!	!LO:LB:g=original
=51	=51	=51	=51	=51	=51	=51	=51	=51	=51	=51	=51	=51	=51	=51	=51	=51	=51
4C/	.	.	4e/	.	4cc\	.	4C/	-ta-	4e\	-ta-	4g\	-ta-	4cc\	-ta-	1ryy	4cc\	4cc\
8r	.	.	8gg\L	.	16b-X\LL	.	4E\	-bit	4e\	-bit	4g\	-bit	4b-X\	-bit	.	4r	4r
.	.	.	.	.	16gg\	.	.	.	.	.	.	.	.	.	.	.	.
8E\	6 5-	.	8gg\J	.	16b-\	.	.	.	.	.	.	.	.	.	.	.	.
.	.	.	.	.	16gg\JJ	.	.	.	.	.	.	.	.	.	.	.	.
!LO:TX:t=P:problem=mixed beam	!	!	!LO:LB:g=original	!	!	!	!	!	!	!	!	!	!	!	!	!	!
8F\L	x 43	.	8gg\L	.	16b-\LL	.	8F\	ca-	8c\	Ca-	8g\	ca-	8b-\	Ca-	.	2r	2r
.	.	.	.	.	16a\J	.	.	.	.	.	.	.	.	.	.	.	.
8FF/J	.	.	8ff\	.	8a\J	.	8F\	-put	8c\	-put	8f\	-put	8a\	-put	.	.	.
!	!	!	!	!	!	!	!	!	!	!	!LO:TX:a:t=S&colon;	!	!LO:TX:a:rj:t=S	!	!	!	!
8r	.	.	8ff\	.	16a\LL	.	8F\	Glo-	8c\	Glo-	8a\	Glo-	8ff\	Glo-	.	.	.
.	.	.	.	.	16ff\	.	.	.	.	.	.	.	.	.	.	.	.
8F\	.	.	8ff\J	.	16a\	.	16F\	-ri-	16c\	-ri-	16a\	-ri-	16ff\	-ri-	.	.	.
.	.	.	.	.	16ff\JJ	.	16F\	-a	16c\	-a	16a\	-a	16ff\	-a	.	.	.
!	!	!	!	!	!LO:LB:g=original	!	!	!	!	!	!	!	!	!	!	!	!
=52	=52	=52	=52	=52	=52	=52	=52	=52	=52	=52	=52	=52	=52	=52	=52	=52	=52
!	!	!	!	!	!	!	!	!	!	!	!	!	!	!	!	!LO:TX:a:t=1.	!
8C/L	6 4	.	8ff\L	.	16a/LL	.	8c\	Pa-	8c\	Pa-	16a\LL	Pa-	16ff\LL	Pa-	1ryy	1r	1r
.	.	.	.	.	16g/J	.	.	.	.	.	16g\JJ	.	16ee\JJ	.	.	.	.
8CC/J	5 3	.	8ee\	.	8g/J	.	8C/	-tri	8c\	-tri	4g\	-tri	4ee\	-tri	.	.	.
8r	.	.	8ee\	.	16g\LL	.	8r	.	8r	.	.	.	.	.	.	.	.
.	.	.	.	.	16ee\	.	.	.	.	.	.	.	.	.	.	.	.
8C/	.	.	8ee\J	.	16g\	.	8C/	et	8c\	&	8g\	et	8ee\	et	.	.	.
.	.	.	.	.	16ee\JJ	.	.	.	.	.	.	.	.	.	.	.	.
!	!	!	!	!	!	!	!	!	!LO:LB:g=original	!	!LO:PB:g=original	!	!LO:LB:g=original	!	!	!	!
8D\L	x 98	.	8ee\L	.	16g/LL	.	16D\	Fi-	16Bn\	Fi-	16g\	Fi-	16ee\	Fi-	.	.	.
.	.	.	.	.	16f/J	.	16D\	-li-	16B\	-li-	16f\	-li-	16dd\	-li-	.	.	.
8G\J	.	.	8dd\	.	8f/J	.	8G\	-o	8B\	-o	8f\	-o	8dd\	-o	.	.	.
!	!	!	!	!	!LO:TX:t=P:problem=mixed beam	!	!	!	!	!	!	!	!	!	!	!	!
8r	.	.	8dd\	.	16f/LL	.	8r	.	8G/	&	8f\	et	8dd\	et	.	.	.
.	.	.	.	.	16dd\	.	.	.	.	.	.	.	.	.	.	.	.
8BB/	.	.	8dd\J	.	16f/	.	16BB/	et	8G/	Spi-	8f\	Spi-	8dd\	Spi-	.	.	.
*	*	*	*	*	*	*	*custos:BB	*	*	*	*	*	*	*	*	*	*
!	!	!	!	!	!	!	!LO:LB:g=original	!	!	!	!	!	!	!	!	!	!
.	.	.	.	.	16dd\JJ	.	16BB/	Spi-	.	.	.	.	.	.	.	.	.
=53	=53	=53	=53	=53	=53	=53	=53	=53	=53	=53	=53	=53	=53	=53	=53	=53	=53
8C\L	x 98	.	8dd\L	.	16f/LL	.	16C/	-ri-	16G/	-ri-	16f\	-ri-	16dd\	-ri-	1ryy	4r	4r
.	.	.	.	.	16e/J	.	16C/	-tu-	16G/	-tu-	16e\	-tu-	16cc\	-tu-	.	.	.
8c\J	.	.	8cc\J	.	8e/J	.	8C/	-i	8G/	-i	8e\	-i	8cc\	-i	.	.	.
8r	.	.	16g/LL	.	16g\LL	.	8G\	San-	8B\	San-	8g\	San-	8dd\	San-	.	4dd\	4dd\
.	.	.	16f#X/	.	16a\	.	.	.	.	.	.	.	.	.	.	.	.
8GG/	.	.	16g/	.	16b\	.	8G\	-cto	8B\	-cto	8g\	-cto	8dd\	-cto	.	.	.
.	.	.	16a/JJ	.	16cc\JJ	.	.	.	.	.	.	.	.	.	.	.	.
!LO:LB:g=original	!	!	!	!	!	!	!	!	!	!	!	!	!	!	!	!	!
8BB/L	.	.	8g/	.	16dd\LL	.	16BB/	Si-	16f\	Si-	16g\	Si-	16dd\	Si-	.	16dd\LL	16dd\LL
.	.	.	.	.	16ee\JJ	.	16BB/	-cut	16f\	-cut	16g\	-cut	16dd\	-cut	.	16ee\JJ	16ee\JJ
8GG/	.	.	4dd\	.	4ff\	.	16GG/	e-	16f\	e-	16g\	e-	16dd\	e-	.	4ff\	4ff\
.	.	.	.	.	.	.	16GG/	-rat	16f\	-rat	16g\	-rat	16dd\	-rat	.	.	.
8BB/	.	.	.	.	.	.	8BB/	in	8f\	in	8g\	in	8dd\	in	.	.	.
8C/J	.	.	8cc\	.	8ee\	.	8C/	prin-	8e\	Prin-	8g\	prin-	8cc\	Prin-	.	8ee\	8ee\
!	!	!	!	!	!	!	!	!	!	!	!	!	!	!	!	!LO:LB:g=original	!
=54	=54	=54	=54	=54	=54	=54	=54	=54	=54	=54	=54	=54	=54	=54	=54	=54	=54
!LO:TX:t=P:problem=mixed beam	!	!	!	!	!	!	!	!	!	!	!	!	!	!	!	!	!
8G\L	x 43	.	8cc\L	.	8ee\L	.	16G\	-ci-	16e\	-ci-	16g\	-ci-	16cc\	-ci-	1ryy	8ee\L	8ee\L
.	.	.	.	.	.	.	16G\	-pi-	16e\	-pi-	16g\	-pi-	16cc\	-pi-	.	.	.
8GG/J	.	.	8b\J	.	8dd\J	.	16G\	-o	16d\	-o	16g\	-o	16b\	-o	.	8dd\	8dd\
.	.	.	.	.	.	.	16G\	et	16d\	&	16g\	et	16b\	et	.	.	.
8r	.	.	16dd\LL	.	16ff\LL	.	8BB/	nunc	8f\	nunc	8g\	nunc	8dd\	Nunc	.	8ff\	8ff\
.	.	.	16b\	.	16ddd\	.	.	.	.	.	.	.	.	.	.	.	.
8C/	.	.	16cc\	.	16ee\	.	8C/	et	8e\	&	8g\	et	8cc\	et	.	8ee\J	8ee\J
.	.	.	16ee\JJ	.	16ccc\JJ	.	.	.	.	.	.	.	.	.	.	.	.
!LO:TX:t=P:problem=mixed beam	!	!	!	!	!	!	!LO:PB:g=original	!	!	!	!LO:LB:g=original	!	!	!	!	!	!
8G\L	x 43	.	8cc\L	.	8ee\L	.	8G\	Sem-	8e\	Sem-	8g\	Sem-	8cc\	Sem-	.	8ee\L	8ee\L
8GG/J	.	.	8b\	.	8dd\	.	8G\	-per	8d\	-per	8g\	-per	8b\	-p(er)	.	8dd\J	8dd\J
!	!	!	!	!	!	!	!	!	!LO:LB:g=original	!	!	!	!LO:LB:g=original	!	!	!	!
=-	=-	=-	=-	=-	=-	=-	=-	=-	=	=-	=-	=-	=-	=-	=-	=-	=-
8r	.	.	8cc\	.	8ee-X\	.	8c\	et	8c\	&	8g\	et	8dd\	Et	.	4r	4r
8c\	x -	.	8cc\J	.	8ee-\J	.	8c\	in	8c\	in	8g\	in	8ee-X\	in	.	.	.
=55	=55	=55	=55	=55	=55	=55	=55	=55	=55	=55	=55	=55	=55	=55	=55	=55	=55
8F#X\L	x 7-	.	8cc\	.	8ee-X\	.	8F#X\	Sae-	8c\	Sae-	8a\	Sae-	8ee-X\	Sae-	1ryy	1r	1r
8F#\	.	.	4ee-X\	.	4ccc\	.	16F#\	-cu-	16c\	-cu-	16a\	-cu-	16ee-\	-cu-	.	.	.
.	.	.	.	.	.	.	16F#\	-la	16c\	-la	16a\	-la	16ee-\	-la	.	.	.
8F#\	.	.	.	.	.	.	8F#\	Sae-	8c\	Se-	8a\	Sae-	8ee-\	Sae-	.	.	.
8F#\J	.	.	8cc\	.	8ee-\	.	8G\	-cu-	8c\	-cu-	8a\	-cu-	8ee-\	-cu-	.	.	.
8c\L	x 4#	.	8f#X/L	.	8f#X/L	.	8c\	-lo-	8A\	-lo-	8f#X\	-lo-	8ee-\	-lo-	.	.	.
8Bn\J	x 6	.	8g/J	.	8g/J	.	8Bn\	-rum	8d\	-rum	8g\	-rum	8dd\	-rum	.	.	.
4r	.	.	4r	.	4r	.	4r	.	4r	.	4r	.	4r	.	.	.	.
=56	=56	=56	=56	=56	=56	=56	=56	=56	=56	=56	=56	=56	=56	=56	=56	=56	=56
4C/	.	.	16c/LL	.	8cc\	.	2r	.	2r	.	2r	.	2r	.	1ryy	2r	2r
.	.	.	16g/	.	.	.	.	.	.	.	.	.	.	.	.	.	.
.	.	.	16e/	.	4cc\	.	.	.	.	.	.	.	.	.	.	.	.
.	.	.	16g/JJ	.	.	.	.	.	.	.	.	.	.	.	.	.	.
!	!	!	!LO:LB:g=original	!	!	!	!	!	!	!	!	!	!	!	!	!	!
4r	.	.	16c/LL	.	.	.	.	.	.	.	.	.	.	.	.	.	.
.	.	.	16g/	.	.	.	.	.	.	.	.	.	.	.	.	.	.
.	.	.	16e/	.	16ee\LL	.	.	.	.	.	.	.	.	.	.	.	.
.	.	.	16c/JJ	.	16gg\JJ	.	.	.	.	.	.	.	.	.	.	.	.
*	*	*	*	*	*2\right	*	*	*	*	*	*	*	*	*	*	*	*
.	.	.	.	.	8qqgg/	.	.	.	.	.	.	.	.	.	.	.	.
4r	.	.	16B/LL	.	2ff\	.	4r	.	4r	.	4r	.	4r	.	.	4r	4r
.	.	.	16g/	.	.	.	.	.	.	.	.	.	.	.	.	.	.
.	.	.	16d/	.	.	.	.	.	.	.	.	.	.	.	.	.	.
.	.	.	16g/JJ	.	.	.	.	.	.	.	.	.	.	.	.	.	.
!	!	!	!LO:SIC:v:s=16B/LL	!	!	!	!	!	!	!	!	!	!	!	!	!	!
4GG/	x 7	.	16A/LL	.	.	.	4G\	a-	4B\	A-	4g\	a-	4dd\	a-	.	4dd\	4ff\
.	.	.	16g/	.	.	.	.	.	.	.	.	.	.	.	.	.	.
.	.	.	16d/	.	.	.	.	.	.	.	.	.	.	.	.	.	.
.	.	.	16B/JJ	.	.	.	.	.	.	.	.	.	.	.	.	.	.
=57	=57	=57	=57	=57	=57	=57	=57	=57	=57	=57	=57	=57	=57	=57	=57	=57	=57
4C/	.	.	16c/LL	.	8ee\	.	4C/	-men	4c\	-men	4g\	-men	4ee\	-men	1ryy	4cc\	4ee\
.	.	.	16g/	.	.	.	.	.	.	.	.	.	.	.	.	.	.
.	.	.	16e/	.	4ccc\	.	.	.	.	.	.	.	.	.	.	.	.
.	.	.	16g/JJ	.	.	.	.	.	.	.	.	.	.	.	.	.	.
4r	.	.	16c/LL	.	.	.	4r	.	4r	.	4r	.	4r	.	.	4r	4r
.	.	.	16g/	.	.	.	.	.	.	.	.	.	.	.	.	.	.
.	.	.	16e/	.	16gg\LL	.	.	.	.	.	.	.	.	.	.	.	.
.	.	.	16c/JJ	.	16bb-X\JJ	.	.	.	.	.	.	.	.	.	.	.	.
!	!	!	!	!	!LO:TX:b:t=V.S.	!	!	!	!	!	!	!	!	!	!	!	!
.	.	.	.	.	8qqbb-/	.	.	.	.	.	.	.	.	.	.	.	.
4r	.	.	16c/LL	.	2aa\	.	4r	.	4r	.	4r	.	4r	.	.	4r	4r
.	.	.	16a/	.	.	.	.	.	.	.	.	.	.	.	.	.	.
.	.	.	16f/	.	.	.	.	.	.	.	.	.	.	.	.	.	.
.	.	.	16a/JJ	.	.	.	.	.	.	.	.	.	.	.	.	.	.
*	*	*	*	*	*	*	*	*	*	*ij	*	*	*	*	*	*	*
4F\	.	.	16c/LL	.	.	.	4F\	a-	4c\	A-	4a\	a-	4cc\	a-	.	4cc\	4cc\
.	.	.	16a/	.	.	.	.	.	.	.	.	.	.	.	.	.	.
.	.	.	16f/	.	.	.	.	.	.	.	.	.	.	.	.	.	.
.	.	.	16c/JJ	.	.	.	.	.	.	.	.	.	.	.	.	.	.
!	!	!	!	!	!LO:PB:g=original	!	!	!	!	!	!	!	!	!	!	!	!
=58	=58	=58	=58	=58	=58	=58	=58	=58	=58	=58	=58	=58	=58	=58	=58	=58	=58
4C/	.	.	16c/LL	.	8ee\	.	4C/	-men	4e\	-men	4g\	-men	4cc\	-men	1ryy	4cc\	4cc\
*	*	*	*	*	*	*	*	*	*	*Xij	*	*	*	*	*	*	*
.	.	.	16g/	.	.	.	.	.	.	.	.	.	.	.	.	.	.
.	.	.	16e/	.	4cc\	.	.	.	.	.	.	.	.	.	.	.	.
.	.	.	16g/JJ	.	.	.	.	.	.	.	.	.	.	.	.	.	.
4r	.	.	16c/LL	.	.	.	4r	.	4r	.	4r	.	4r	.	.	4r	4r
.	.	.	16g/	.	.	.	.	.	.	.	.	.	.	.	.	.	.
.	.	.	16e/	.	16cc\LL	.	.	.	.	.	.	.	.	.	.	.	.
.	.	.	16c/JJ	.	16ee\JJ	.	.	.	.	.	.	.	.	.	.	.	.
.	.	.	.	.	8qqee/	.	.	.	.	.	.	.	.	.	.	.	.
!	!	!	!	!	!	!	!	!	!	!	!	!	!	!	!	!	!LO:LB:g=original
4BB/	.	.	16G/LL	.	8dd\	.	4BB/	a-	4G/	A-	4f\	a-	4dd\	a-	.	4dd\	4dd\
.	.	.	16f/	.	.	.	.	.	.	.	.	.	.	.	.	.	.
.	.	.	16d/	.	4ff\	.	.	.	.	.	.	.	.	.	.	.	.
.	.	.	16f/JJ	.	.	.	.	.	.	.	.	.	.	.	.	.	.
4r	.	.	16G/LL	.	.	.	4r	.	4r	.	4r	.	4r	.	.	4r	4r
.	.	.	16f/	.	.	.	.	.	.	.	.	.	.	.	.	.	.
.	.	.	16d/	.	16bn\LL	.	.	.	.	.	.	.	.	.	.	.	.
.	.	.	16B/JJ	.	16dd\JJ	.	.	.	.	.	.	.	.	.	.	.	.
!LO:PB:g=original	!	!	!	!	!	!	!LO:LB:g=original	!	!	!	!LO:LB:g=original	!	!	!	!	!	!
=59	=59	=59	=59	=59	=59	=59	=59	=59	=59	=59	=59	=59	=59	=59	=59	=59	=59
4C/	.	.	16G/LL	.	8ee\	.	4C/	.	4G/	-men	4e\	-men	4cc\	-men	1ryy	4ee\	4ee\
.	.	.	16g/	.	.	.	.	.	.	.	.	.	.	.	.	.	.
.	.	.	16e/	.	4cc\	.	.	.	.	.	.	.	.	.	.	.	.
.	.	.	16g/JJ	.	.	.	.	.	.	.	.	.	.	.	.	.	.
4r	.	.	16G/LL	.	.	.	4r	.	4r	.	4r	.	4r	.	.	4r	4r
.	.	.	16g/	.	.	.	.	.	.	.	.	.	.	.	.	.	.
.	.	.	16e/	.	16cc\LL	.	.	.	.	.	.	.	.	.	.	.	.
.	.	.	16c/JJ	.	16ee\JJ	.	.	.	.	.	.	.	.	.	.	.	.
4G\	.	.	16G/LL	.	8dd\L	.	4G\	-men	4G/	A-	4f\	a-	4dd\	a-	.	4ff\	4ff\
.	.	.	16f/	.	.	.	.	.	.	.	.	.	.	.	.	.	.
.	.	.	16d/	.	16ff\L	.	.	.	.	.	.	.	.	.	.	.	.
.	.	.	16f/JJ	.	16dd\JJ	.	.	.	.	.	.	.	.	.	.	.	.
.	.	.	.	.	8qqcc/	.	.	.	.	.	.	.	.	.	.	.	.
4r	.	.	16G/LL	.	8.b\L	.	4r	.	4r	.	4r	.	4r	.	.	4r	4r
.	.	.	16f/	.	.	.	.	.	.	.	.	.	.	.	.	.	.
.	.	.	16d/	.	.	.	.	.	.	.	.	.	.	.	.	.	.
.	.	.	16B/JJ	.	16dd\Jk	.	.	.	.	.	.	.	.	.	.	.	.
!	!	!	!	!	!	!	!	!	!	!	!	!	!LO:LB:g=original	!	!	!LO:LB:g=original	!
=60	=60	=60	=60	=60	=60	=60	=60	=60	=60	=60	=60	=60	=60	=60	=60	=60	=60
*	*	*	*	*	*	*	*	*	*2\right	*	*	*	*	*	*	*	*
!LO:TX:a:rj:t=T&colon;	!	!	!	!	!	!	!	!	!	!	!	!	!	!	!	!	!
2c\	.	.	4c/	.	4cc\	.	4c\	a-	4G/	-men	4e\	-men	4cc\	-men	1ryy	4ee\	4ee\
.	.	.	2cc\	.	4ee\	.	4c\	-men	2c\	A-	4r	.	2ee\	a-	.	4r	4r
!	!	!	!	!	!LO:TX:t=P:problem=mixed beam	!	!	!	!	!	!	!	!	!	!	!	!
2G#X\	x 65	.	.	.	8ee\L	.	2G#X\	a-	.	.	2e\	a-	.	.	.	4r	4r
.	.	.	.	.	8e/J	.	.	.	.	.	.	.	.	.	.	.	.
.	.	.	4b\	.	8.dd\L	.	.	.	4B\	.	.	.	4dd\	.	.	4e/	4ee\
.	.	.	.	.	32cc\LL	.	.	.	.	.	.	.	.	.	.	.	.
.	.	.	.	.	32dd\JJJ	.	.	.	.	.	.	.	.	.	.	.	.
!	!	!	!LO:PB:g=original	!	!	!	!	!	!LO:PB:g=original	!	!	!	!	!	!	!	!
=61	=61	=61	=61-	=61	=61	=61	=61	=61	=61	=61	=61	=61	=61	=61	=61	=61	=61
*	*	*	*	*	*	*	*	*ij	*	*	*	*	*	*	*	*	*
!	!	!	!	!	!	!	!	!	!	!	!	!	!LO:TX:t=P:\right:problem	!	!	!	!
2A\	93 43	.	8b\L	.	4dd\	.	2A\	-men	4B\	.	4e\	.	4dd\	.	1ryy	4e/	4ee\
.	.	.	8g\J	.	.	.	.	.	.	.	.	.	.	.	.	.	.
.	.	.	2a/	.	4cc\	.	.	.	4A\	.	2a\	.	2cc\	.	.	4r	4r
!	!	!	!	!	!LO:TX:t=P:problem=mixed beam	!	!	!	!	!	!	!	!	!	!	!	!
2E\	6 4	.	.	.	8cc\L	.	2E\	a-	2c\	-men	.	.	.	.	.	2r	2r
.	5- 3	.	.	.	8c/J	.	.	.	.	.	.	.	.	.	.	.	.
!	!	!	!	!	!	!	!	!	!	!	!	!	!LO:TX:t=P:\right:problem	!	!	!	!
.	.	.	4g/	.	8.b-X\L	.	.	.	.	.	4g\	-men	4b-X\	.	.	.	.
.	.	.	.	.	32a\LL	.	.	.	.	.	.	.	.	.	.	.	.
.	.	.	.	.	32b-\JJJ	.	.	.	.	.	.	.	.	.	.	.	.
=62	=62	=62	=62	=62	=62	=62	=62	=62	=62	=62	=62	=62	=62	=62	=62	=62	=62
!	!	!	!	!	!	!	!	!	!	!	!	!	!LO:TX:t=P:\right:problem	!	!	!	!
2F\	40 98	.	8g/L	.	4b/	.	2F\	-men	4r	.	4g\	a-	4b-X\	.	1ryy	0r	0r
.	.	.	8c/J	.	.	.	.	.	.	.	.	.	.	.	.	.	.
.	.	.	2ff\	.	4a/	.	.	.	(4c\	a-	8f\L	.	8a\L	.	.	.	.
.	.	.	.	.	.	.	.	.	.	.	8a\J	.	8ff\J	.	.	.	.
!	!	!	!	!	!	!	!	!	!	!	!	!	!LO:TX:t=P:problem=wykreślona kreska taktowa	!	!	!	!
2C#X\	65 43	.	.	.	8a/L	.	2C#X/	a-	4A\)	.	4a\	.	4ff\	.	.	.	.
.	.	.	.	.	8A/J	.	.	.	.	.	.	.	.	.	.	.	.
!	!	!	!	!	!LO:TX:t=t&colon;	!	!	!	!	!	!	!	!	!	!	!	!
.	.	.	4ee\	.	4g/	.	.	.	4A\	-men	4g\	-men	4ee\	-men	.	.	.
!	!	!	!	!	!LO:LB:g=original	!	!	!	!	!	!	!	!	!	!	!	!
=63	=63	=63	=63	=63	=63	=63	=63	=63	=63	=63	=63	=63	=63	=63	=63	=63	=63
2D\	98 43	.	4ee\	.	4g/	.	2D\	-men	2A\	a-	8g\L	a-	4ee\	a-	1ryy	.	.
.	.	.	.	.	.	.	.	.	.	.	8a\	.	.	.	.	.	.
.	.	.	2dd\	.	8f/L	.	.	.	.	.	8f\	.	2dd\	.	.	.	.
.	.	.	.	.	8e/J	.	.	.	.	.	8g\J	.	.	.	.	.	.
2F#X\	x 65	.	.	.	8d/	.	2F#X\	a-	2d\	-men	2a\	-men	.	.	.	.	.
*	*	*	*	*	*	*	*	*Xij	*	*	*	*	*	*	*	*	*
.	.	.	.	.	4a/	.	.	.	.	.	.	.	.	.	.	.	.
.	.	.	4cc\	.	.	.	.	.	.	.	.	.	4cc\	.	.	.	.
.	.	.	.	.	8A/	.	.	.	.	.	.	.	.	.	.	.	.
=64	=64	=64	=64	=64	=64	=64	=64	=64	=64	=64	=64	=64	=64	=64	=64	=64	=64
*	*	*	*	*	*	*	*	*	*	*ij	*	*	*	*	*	*	*
4G 4GG/	.	.	8bn\	.	16G/LL	.	4G\	-men.	2d\	a-	2g\	a-	2b\	.	1ryy	4g/	4dd\
.	.	.	.	.	16g/	.	.	.	.	.	.	.	.	.	.	.	.
.	.	.	4b\	.	16d/	.	.	.	.	.	.	.	.	.	.	.	.
.	.	.	.	.	16B/JJ	.	.	.	.	.	.	.	.	.	.	.	.
4r	.	.	.	.	16G/LL	.	4r	.	.	.	.	.	.	.	.	4r	4r
.	.	.	.	.	16g/	.	.	.	.	.	.	.	.	.	.	.	.
.	.	.	16dd\LL	.	16d/	.	.	.	.	.	.	.	.	.	.	.	.
.	.	.	16ff\JJ	.	16B/JJ	.	.	.	.	.	.	.	.	.	.	.	.
.	.	.	8qqff/	.	.	.	.	.	.	.	.	.	.	.	.	.	.
4GG/	6 4	.	2ee\	.	16G/LL	.	2r	.	2e\	-men	2g\	-men	2cc\	.	.	4r	4r
.	.	.	.	.	16g/	.	.	.	.	.	.	.	.	.	.	.	.
.	.	.	.	.	16e/	.	.	.	.	.	.	.	.	.	.	.	.
.	.	.	.	.	16g/JJ	.	.	.	.	.	.	.	.	.	.	.	.
4r	.	.	.	.	16ee\LL	.	.	.	.	.	.	.	.	.	.	4cc\	4ee\
.	.	.	.	.	16g\	.	.	.	.	.	.	.	.	.	.	.	.
.	.	.	.	.	16e\	.	.	.	.	.	.	.	.	.	.	.	.
.	.	.	.	.	16g\JJ	.	.	.	.	.	.	.	.	.	.	.	.
=65	=65	=65	=65	=65	=65	=65	=65	=65	=65	=65	=65	=65	=65	=65	=65	=65	=65
4GG/	x 7	.	8b\	.	16G/LL	.	1r	.	2B\	a-	2f\	a-	2dd\	.	1ryy	4dd\	4ff\
.	.	.	.	.	16f/	.	.	.	.	.	.	.	.	.	.	.	.
.	.	.	4b\	.	16d/	.	.	.	.	.	.	.	.	.	.	.	.
.	.	.	.	.	16f/JJ	.	.	.	.	.	.	.	.	.	.	.	.
!	!	!	!	!	!LO:TX:t=P:problem=mixed beam	!	!	!	!	!	!	!	!	!	!	!	!
4r	.	.	.	.	16dd\LL	.	.	.	.	.	.	.	.	.	.	4r	4r
.	.	.	.	.	16f/	.	.	.	.	.	.	.	.	.	.	.	.
.	.	.	16b\LL	.	16d/	.	.	.	.	.	.	.	.	.	.	.	.
.	.	.	16dd\JJ	.	16f/JJ	.	.	.	.	.	.	.	.	.	.	.	.
.	.	.	8qqdd/	.	.	.	.	.	.	.	.	.	.	.	.	.	.
4GG/	.	.	2cc\	.	16G/LL	.	.	.	2c\	-men	2e\	-men	2cc\	.	.	4r	4r
.	.	.	.	.	16e/	.	.	.	.	.	.	.	.	.	.	.	.
.	.	.	.	.	16c/	.	.	.	.	.	.	.	.	.	.	.	.
.	.	.	.	.	16e/JJ	.	.	.	.	.	.	.	.	.	.	.	.
4r	.	.	.	.	16cc\LL	.	.	.	.	.	.	.	.	.	.	4cc\	4ee\
.	.	.	.	.	16e\	.	.	.	.	.	.	.	.	.	.	.	.
.	.	.	.	.	16c\	.	.	.	.	.	.	.	.	.	.	.	.
.	.	.	.	.	16e\JJ	.	.	.	.	.	.	.	.	.	.	.	.
!LO:LB:g=original	!	!	!	!	!	!	!	!	!	!	!	!	!	!	!	!	!
=66	=66	=66	=66	=66	=66	=66	=66	=66	=66	=66	=66	=66	=66	=66	=66	=66	=66
*	*	*	*	*	*	*	*	*	*	*	*	*ij	*	*	*	*	*
1GG	.	.	8dd\	.	16G/LL	.	2G\	a-	2d\	a-	2g\	a-	2b\	men	1ryy	4g\	4dd\
.	.	.	.	.	16d/	.	.	.	.	.	.	.	.	.	.	.	.
.	.	.	4dd\	.	16B/	.	.	.	.	.	.	.	.	.	.	.	.
.	.	.	.	.	16d/JJ	.	.	.	.	.	.	.	.	.	.	.	.
!	!	!	!	!	!LO:TX:t=P:problem=mixed beam	!	!	!	!	!	!	!	!	!	!	!	!
.	.	.	.	.	16b\LL	.	.	.	.	.	.	.	.	.	.	4r	4r
.	.	.	.	.	16d/	.	.	.	.	.	.	.	.	.	.	.	.
.	.	.	16dd\LL	.	16B/	.	.	.	.	.	.	.	.	.	.	.	.
.	.	.	16ff\JJ	.	16d/JJ	.	.	.	.	.	.	.	.	.	.	.	.
.	.	.	8qqcc/	.	.	.	.	.	.	.	.	.	.	.	.	.	.
!	!	!	!	!	!LO:LB:g=original	!	!	!	!	!	!	!	!	!	!	!	!
.	.	.	2b\	.	16G/LL	.	2G\	.	2B\	-men	2f\	-men	2dd\	a-	.	4r	4r
*	*	*	*	*	*	*	*	*	*	*Xij	*	*Xij	*	*	*	*	*
.	.	.	.	.	16f/	.	.	.	.	.	.	.	.	.	.	.	.
.	.	.	.	.	16d/	.	.	.	.	.	.	.	.	.	.	.	.
.	.	.	.	.	16f/JJ	.	.	.	.	.	.	.	.	.	.	.	.
.	.	.	.	.	16G/LL	.	.	.	.	.	.	.	.	.	.	4dd\	4ff\
.	.	.	.	.	16f/	.	.	.	.	.	.	.	.	.	.	.	.
.	.	.	.	.	16d/	.	.	.	.	.	.	.	.	.	.	.	.
.	.	.	.	.	16B/JJ	.	.	.	.	.	.	.	.	.	.	.	.
!	!	!	!LO:LB:g=original	!	!	!	!	!	!	!	!LO:LB:g=original	!	!	!	!	!	!LO:LB:g=original
=67	=67	=67	=67	=67	=67	=67	=67	=67	=67	=67	=67	=67	=67	=67	=67	=67	=67-
2GG/	.	.	8cc\	.	16G/LL	.	2G\	.	4G/	a-	2g\	a-	2ee\	-men	1ryy	4cc\	4ee\
.	.	.	.	.	16g/	.	.	.	.	.	.	.	.	.	.	.	.
.	.	.	4cc\	.	16e/	.	.	.	.	.	.	.	.	.	.	.	.
.	.	.	.	.	16g/JJ	.	.	.	.	.	.	.	.	.	.	.	.
.	.	.	.	.	16G/LL	.	.	.	4c\	.	.	.	.	.	.	4r	4r
.	.	.	.	.	16g/	.	.	.	.	.	.	.	.	.	.	.	.
.	.	.	16cc\LL	.	16e/	.	.	.	.	.	.	.	.	.	.	.	.
.	.	.	16gg\JJ	.	16c/JJ	.	.	.	.	.	.	.	.	.	.	.	.
*	*	*	*	*	*	*	*	*	*	*	*	*	*	*ij	*	*	*
4C/	#4_ -3_	.	2ee-X\	.	16A/LL	.	4C/	-men	2A\	.	2f#X\	.	2ee-X\	a-	.	2r	2r
.	.	.	.	.	16f#X/	.	.	.	.	.	.	.	.	.	.	.	.
.	.	.	.	.	16c/	.	.	.	.	.	.	.	.	.	.	.	.
.	.	.	.	.	16f#/JJ	.	.	.	.	.	.	.	.	.	.	.	.
!	!	!	!	!	!	!	!LO:LB:g=original	!	!	!	!	!	!	!	!	!	!
8r	.	.	.	.	16A/LL	.	8r	.	.	.	.	.	.	.	.	.	.
.	.	.	.	.	16f#/	.	.	.	.	.	.	.	.	.	.	.	.
*	*	*	*	*	*	*	*	*ij	*	*	*	*	*	*	*	*	*
8BB/J	.	.	.	.	16c/	.	8C/	a-	.	.	.	.	.	.	.	.	.
.	.	.	.	.	16f#/JJ	.	.	.	.	.	.	.	.	.	.	.	.
!	!	!	!	!	!	!	!	!	!	!	!	!	!	!	!	!LO:LB:g=original	!
=68	=68	=68	=68	=68	=68	=68	=68	=68	=68	=68	=68	=68	=68	=68	=68	=68	=68
4BB/	x 6	.	8dd\	.	16G/LL	.	4GG/	-men	4B\	-men	4g\	-men	4dd\	-men	1ryy	4g/	4dd\
*	*	*	*	*	*	*	*	*Xij	*	*	*	*	*	*Xij	*	*	*
.	.	.	.	.	16fn/	.	.	.	.	.	.	.	.	.	.	.	.
.	.	.	4aa\	.	16d/	.	.	.	.	.	.	.	.	.	.	.	.
.	.	.	.	.	16f/JJ	.	.	.	.	.	.	.	.	.	.	.	.
!	!	!	!	!	!LO:TX:t=P:problem=mixed beam	!	!	!	!	!	!	!	!	!	!	!	!
8r	.	.	.	.	16dd\LL	.	8r	.	8r	.	8r	.	8r	.	.	4r	4r
.	.	.	.	.	16f/	.	.	.	.	.	.	.	.	.	.	.	.
!	!	!	!	!	!	!	!	!	!LO:LB:g=original	!	!	!	!LO:TX:t=P:\right:problem	!	!	!	!
8BB/	x 5n	.	16ff\LL	.	16d/	.	8BB/	a-	8d\	A-	8g\	a-	(8dd\	a-	.	.	.
.	.	.	16dd\JJ	.	16f/JJ	.	.	.	.	.	.	.	.	.	.	.	.
!	!	!	!	!	!LO:TX:t=P:problem=mixed beam	!	!	!	!	!	!	!	!	!	!	!	!
8C\L	.	.	8cc\L	.	8e/L	.	8C\L	.	8e\	-men	8g\	-men	8cc\)	.	.	8r	8r
8A\	.	.	8ee\	.	8ccc\	.	8A\	.	8c\	A-	4a\	a-	8cc\	-men	.	8cc\L	8ee\L
!	!	!	!	!	!	!	!	!	!	!	!	!	!LO:LB:g=original	!	!	!	!
8F\	6 5	.	8ff\	.	8ddd\	.	8F\	.	8c\L	.	.	.	4dd\	a-	.	8dd\	8ff\
8G\J	.	.	8dd\J	.	8bb\J	.	8G\J	.	8B\J	.	8g\	.	.	.	.	8g\J	8dd\J
=69	=69	=69	=69	=69	=69	=69	=69	=69	=69	=69	=69	=69	=69	=69	=69	=69	=69
!	!	!	!	!	!	!	!	!	!LO:N:vis=2	!	!	!	!	!	!	!	!
4C/	.	.	4ee\	.	4ccc\	.	4C/	-men.	4c\	-men	4g\	-men.	4cc\	-men	1ryy	4e/	4cc\
4r	.	.	4r	.	4r	.	4r	.	4r	.	4r	.	4r	.	.	4r	4r
!	!	!	!LO:TX:a:t=6 9	!	!	!	!	!	!	!	!	!	!	!	!	!	!
2r	.	.	2r	.	2r	.	2r	.	2r	.	2r	.	2r	.	.	2r	2r
==	==	==	==;;	==	==	==	==	==	==	==	==	==	==	==	==	==	==
*-	*-	*-	*-	*-	*-	*-	*-	*-	*-	*-	*-	*-	*-	*-	*-	*-	*-
!!!system-decoration: [(g1)][g2][(g3)][(g4)]g5
!!!ENC: Katarzyna Serwa
!!!END: 2022-02-27
!!!AIN: 1 alto 1 bass 2 clrno 1 organ 1 tenor 1 timpa 2 violn
!!!ENC: Krzysztof Stępień
!!!END: 2020-09-10
